; G-code generated from X and Y values
G21 ; Set units to millimeters
G90 ; Absolute positioning
M3 S1000 ; Start spindle at 1000 RPM
; positive_gradient_coil coordinates
G0 Z5 ; Move to safe height
G0 X0 Y0 ; Move to start position
G0 X28.740 Y-50.704
G0 Z-0.1 ; Move down to cutting depth
G1 F1000 ; Set feed rate
G1 X28.740 Y-50.704
G1 X28.949 Y-50.709
G1 X29.159 Y-50.712
G1 X29.369 Y-50.716
G1 X29.579 Y-50.720
G1 X29.788 Y-50.723
G1 X29.998 Y-50.726
G1 X30.208 Y-50.729
G1 X30.417 Y-50.731
G1 X30.627 Y-50.734
G1 X30.837 Y-50.736
G1 X31.047 Y-50.737
G1 X31.256 Y-50.739
G1 X31.466 Y-50.740
G1 X31.676 Y-50.742
G1 X31.886 Y-50.743
G1 X32.095 Y-50.743
G1 X32.305 Y-50.744
G1 X32.515 Y-50.744
G1 X32.724 Y-50.744
G1 X32.934 Y-50.744
G1 X33.144 Y-50.743
G1 X33.354 Y-50.742
G1 X33.563 Y-50.741
G1 X33.773 Y-50.740
G1 X33.983 Y-50.739
G1 X34.192 Y-50.737
G1 X34.402 Y-50.735
G1 X34.612 Y-50.733
G1 X34.822 Y-50.730
G1 X35.031 Y-50.727
G1 X35.241 Y-50.724
G1 X35.451 Y-50.721
G1 X35.661 Y-50.717
G1 X35.870 Y-50.713
G1 X36.080 Y-50.709
G1 X36.290 Y-50.704
G1 X36.499 Y-50.699
G1 X36.709 Y-50.694
G1 X36.919 Y-50.689
G1 X37.129 Y-50.683
G1 X37.338 Y-50.677
G1 X37.548 Y-50.670
G1 X37.758 Y-50.663
G1 X37.968 Y-50.656
G1 X38.177 Y-50.648
G1 X38.182 Y-50.648
G1 X38.387 Y-50.640
G1 X38.597 Y-50.632
G1 X38.806 Y-50.623
G1 X39.016 Y-50.613
G1 X39.226 Y-50.604
G1 X39.436 Y-50.593
G1 X39.645 Y-50.583
G1 X39.855 Y-50.571
G1 X40.065 Y-50.559
G1 X40.274 Y-50.547
G1 X40.484 Y-50.534
G1 X40.694 Y-50.521
G1 X40.904 Y-50.507
G1 X41.113 Y-50.492
G1 X41.323 Y-50.477
G1 X41.533 Y-50.461
G1 X41.743 Y-50.444
G1 X41.807 Y-50.438
G1 X41.952 Y-50.426
G1 X42.162 Y-50.408
G1 X42.372 Y-50.388
G1 X42.581 Y-50.368
G1 X42.791 Y-50.347
G1 X43.001 Y-50.325
G1 X43.211 Y-50.302
G1 X43.420 Y-50.278
G1 X43.630 Y-50.253
G1 X43.821 Y-50.229
G1 X43.840 Y-50.226
G1 X44.049 Y-50.198
G1 X44.259 Y-50.169
G1 X44.469 Y-50.138
G1 X44.679 Y-50.106
G1 X44.888 Y-50.072
G1 X45.098 Y-50.037
G1 X45.199 Y-50.019
G1 X45.308 Y-49.999
G1 X45.518 Y-49.960
G1 X45.727 Y-49.918
G1 X45.937 Y-49.874
G1 X46.147 Y-49.827
G1 X46.223 Y-49.809
G1 X46.356 Y-49.778
G1 X46.566 Y-49.725
G1 X46.776 Y-49.670
G1 X46.986 Y-49.611
G1 X47.023 Y-49.600
G1 X47.195 Y-49.548
G1 X47.405 Y-49.481
G1 X47.615 Y-49.409
G1 X47.669 Y-49.390
G1 X47.824 Y-49.332
G1 X48.034 Y-49.250
G1 X48.202 Y-49.180
G1 X48.244 Y-49.162
G1 X48.454 Y-49.067
G1 X48.651 Y-48.970
G1 X48.663 Y-48.964
G1 X48.873 Y-48.853
G1 X49.034 Y-48.761
G1 X49.083 Y-48.732
G1 X49.293 Y-48.600
G1 X49.366 Y-48.551
G1 X49.502 Y-48.456
G1 X49.656 Y-48.341
G1 X49.712 Y-48.298
G1 X49.912 Y-48.131
G1 X49.922 Y-48.123
G1 X50.131 Y-47.930
G1 X50.140 Y-47.922
G1 X50.341 Y-47.715
G1 X50.344 Y-47.712
G1 X50.527 Y-47.502
G1 X50.551 Y-47.474
G1 X50.693 Y-47.293
G1 X50.761 Y-47.201
G1 X50.844 Y-47.083
G1 X50.970 Y-46.892
G1 X50.982 Y-46.873
G1 X51.109 Y-46.663
G1 X51.180 Y-46.537
G1 X51.225 Y-46.454
G1 X51.333 Y-46.244
G1 X51.390 Y-46.127
G1 X51.433 Y-46.034
G1 X51.525 Y-45.824
G1 X51.600 Y-45.646
G1 X51.612 Y-45.615
G1 X51.692 Y-45.405
G1 X51.768 Y-45.195
G1 X51.809 Y-45.074
G1 X51.838 Y-44.986
G1 X51.905 Y-44.776
G1 X51.967 Y-44.566
G1 X52.019 Y-44.385
G1 X52.027 Y-44.356
G1 X52.082 Y-44.147
G1 X52.135 Y-43.937
G1 X52.185 Y-43.727
G1 X52.229 Y-43.536
G1 X52.233 Y-43.518
G1 X52.277 Y-43.308
G1 X52.320 Y-43.098
G1 X52.361 Y-42.888
G1 X52.400 Y-42.679
G1 X52.437 Y-42.469
G1 X52.438 Y-42.464
G1 X52.473 Y-42.259
G1 X52.507 Y-42.049
G1 X52.539 Y-41.840
G1 X52.570 Y-41.630
G1 X52.600 Y-41.420
G1 X52.629 Y-41.211
G1 X52.648 Y-41.065
G1 X52.656 Y-41.001
G1 X52.683 Y-40.791
G1 X52.708 Y-40.581
G1 X52.732 Y-40.372
G1 X52.756 Y-40.162
G1 X52.779 Y-39.952
G1 X52.801 Y-39.743
G1 X52.822 Y-39.533
G1 X52.842 Y-39.323
G1 X52.858 Y-39.160
G1 X52.862 Y-39.113
G1 X52.881 Y-38.904
G1 X52.899 Y-38.694
G1 X52.917 Y-38.484
G1 X52.934 Y-38.274
G1 X52.951 Y-38.065
G1 X52.967 Y-37.855
G1 X52.983 Y-37.645
G1 X52.998 Y-37.436
G1 X53.013 Y-37.226
G1 X53.027 Y-37.016
G1 X53.041 Y-36.806
G1 X53.055 Y-36.597
G1 X53.068 Y-36.393
G1 X53.068 Y-36.387
G1 X53.081 Y-36.177
G1 X53.093 Y-35.968
G1 X53.105 Y-35.758
G1 X53.117 Y-35.548
G1 X53.128 Y-35.338
G1 X53.139 Y-35.129
G1 X53.150 Y-34.919
G1 X53.160 Y-34.709
G1 X53.171 Y-34.499
G1 X53.180 Y-34.290
G1 X53.190 Y-34.080
G1 X53.200 Y-33.870
G1 X53.209 Y-33.661
G1 X53.218 Y-33.451
G1 X53.227 Y-33.241
G1 X53.235 Y-33.031
G1 X53.244 Y-32.822
G1 X53.252 Y-32.612
G1 X53.260 Y-32.402
G1 X53.268 Y-32.192
G1 X53.276 Y-31.983
G1 X53.277 Y-31.937
G1 X53.283 Y-31.773
G1 X53.290 Y-31.563
G1 X53.297 Y-31.354
G1 X53.304 Y-31.144
G1 X53.311 Y-30.934
G1 X53.318 Y-30.724
G1 X53.324 Y-30.515
G1 X53.330 Y-30.305
G1 X53.337 Y-30.095
G1 X53.343 Y-29.886
G1 X53.349 Y-29.676
G1 X53.354 Y-29.466
G1 X53.360 Y-29.256
G1 X53.366 Y-29.047
G1 X53.371 Y-28.837
G1 X53.376 Y-28.627
G1 X53.382 Y-28.417
G1 X53.387 Y-28.208
G1 X53.392 Y-27.998
G1 X53.397 Y-27.788
G1 X53.402 Y-27.579
G1 X53.406 Y-27.369
G1 X53.411 Y-27.159
G1 X53.416 Y-26.949
G1 X53.420 Y-26.740
G1 X53.424 Y-26.530
G1 X53.429 Y-26.320
G1 X53.433 Y-26.111
G1 X53.437 Y-25.901
G1 X53.441 Y-25.691
G1 X53.445 Y-25.481
G1 X53.449 Y-25.272
G1 X53.453 Y-25.062
G1 X53.456 Y-24.852
G1 X53.460 Y-24.642
G1 X53.464 Y-24.433
G1 X53.467 Y-24.223
G1 X53.471 Y-24.013
G1 X53.474 Y-23.804
G1 X53.477 Y-23.594
G1 X53.481 Y-23.384
G1 X53.484 Y-23.174
G1 X53.487 Y-22.965
G1 X53.487 Y-22.954
G1 X53.490 Y-22.755
G1 X53.493 Y-22.545
G1 X53.496 Y-22.336
G1 X53.499 Y-22.126
G1 X53.502 Y-21.916
G1 X53.504 Y-21.706
G1 X53.507 Y-21.497
G1 X53.510 Y-21.287
G1 X53.512 Y-21.077
G1 X53.515 Y-20.867
G1 X53.517 Y-20.658
G1 X53.520 Y-20.448
G1 X53.522 Y-20.238
G1 X53.525 Y-20.029
G1 X53.527 Y-19.819
G1 X53.529 Y-19.609
G1 X53.531 Y-19.399
G1 X53.534 Y-19.190
G1 X53.536 Y-18.980
G1 X53.538 Y-18.770
G1 X53.540 Y-18.560
G1 X53.542 Y-18.351
G1 X53.544 Y-18.141
G1 X53.546 Y-17.931
G1 X53.548 Y-17.722
G1 X53.550 Y-17.512
G1 X53.552 Y-17.302
G1 X53.554 Y-17.092
G1 X53.555 Y-16.883
G1 X53.557 Y-16.673
G1 X53.559 Y-16.463
G1 X53.560 Y-16.254
G1 X53.562 Y-16.044
G1 X53.564 Y-15.834
G1 X53.565 Y-15.624
G1 X53.567 Y-15.415
G1 X53.568 Y-15.205
G1 X53.570 Y-14.995
G1 X53.571 Y-14.785
G1 X53.573 Y-14.576
G1 X53.574 Y-14.366
G1 X53.575 Y-14.156
G1 X53.577 Y-13.947
G1 X53.578 Y-13.737
G1 X53.579 Y-13.527
G1 X53.581 Y-13.317
G1 X53.582 Y-13.108
G1 X53.583 Y-12.898
G1 X53.584 Y-12.688
G1 X53.585 Y-12.479
G1 X53.586 Y-12.269
G1 X53.588 Y-12.059
G1 X53.589 Y-11.849
G1 X53.590 Y-11.640
G1 X53.591 Y-11.430
G1 X53.592 Y-11.220
G1 X53.593 Y-11.010
G1 X53.594 Y-10.801
G1 X53.594 Y-10.591
G1 X53.595 Y-10.381
G1 X53.596 Y-10.172
G1 X53.597 Y-9.962
G1 X53.598 Y-9.752
G1 X53.599 Y-9.542
G1 X53.600 Y-9.333
G1 X53.600 Y-9.123
G1 X53.601 Y-8.913
G1 X53.602 Y-8.704
G1 X53.602 Y-8.494
G1 X53.603 Y-8.284
G1 X53.604 Y-8.074
G1 X53.604 Y-7.865
G1 X53.605 Y-7.655
G1 X53.606 Y-7.445
G1 X53.606 Y-7.235
G1 X53.607 Y-7.026
G1 X53.607 Y-6.816
G1 X53.608 Y-6.606
G1 X53.608 Y-6.397
G1 X53.609 Y-6.187
G1 X53.609 Y-5.977
G1 X53.610 Y-5.767
G1 X53.610 Y-5.558
G1 X53.611 Y-5.348
G1 X53.611 Y-5.138
G1 X53.611 Y-4.928
G1 X53.612 Y-4.719
G1 X53.612 Y-4.509
G1 X53.612 Y-4.299
G1 X53.613 Y-4.090
G1 X53.613 Y-3.880
G1 X53.613 Y-3.670
G1 X53.614 Y-3.460
G1 X53.614 Y-3.251
G1 X53.614 Y-3.041
G1 X53.614 Y-2.831
G1 X53.614 Y-2.622
G1 X53.615 Y-2.412
G1 X53.615 Y-2.202
G1 X53.615 Y-1.992
G1 X53.615 Y-1.783
G1 X53.615 Y-1.573
G1 X53.615 Y-1.363
G1 X53.615 Y-1.153
G1 X53.615 Y-0.944
G1 X53.615 Y-0.734
G1 X53.615 Y-0.524
G1 X53.616 Y-0.315
G1 X53.616 Y-0.105
G1 X53.616 Y0.105
G1 X53.616 Y0.315
G1 X53.615 Y0.524
G1 X53.615 Y0.734
G1 X53.615 Y0.944
G1 X53.615 Y1.153
G1 X53.615 Y1.363
G1 X53.615 Y1.573
G1 X53.615 Y1.783
G1 X53.615 Y1.992
G1 X53.615 Y2.202
G1 X53.615 Y2.412
G1 X53.614 Y2.622
G1 X53.614 Y2.831
G1 X53.614 Y3.041
G1 X53.614 Y3.251
G1 X53.613 Y3.460
G1 X53.613 Y3.670
G1 X53.613 Y3.880
G1 X53.613 Y4.090
G1 X53.612 Y4.299
G1 X53.612 Y4.509
G1 X53.612 Y4.719
G1 X53.611 Y4.928
G1 X53.611 Y5.138
G1 X53.610 Y5.348
G1 X53.610 Y5.558
G1 X53.610 Y5.767
G1 X53.609 Y5.977
G1 X53.609 Y6.187
G1 X53.608 Y6.397
G1 X53.608 Y6.606
G1 X53.607 Y6.816
G1 X53.607 Y7.026
G1 X53.606 Y7.235
G1 X53.605 Y7.445
G1 X53.605 Y7.655
G1 X53.604 Y7.865
G1 X53.604 Y8.074
G1 X53.603 Y8.284
G1 X53.602 Y8.494
G1 X53.602 Y8.704
G1 X53.601 Y8.913
G1 X53.600 Y9.123
G1 X53.599 Y9.333
G1 X53.599 Y9.542
G1 X53.598 Y9.752
G1 X53.597 Y9.962
G1 X53.596 Y10.172
G1 X53.595 Y10.381
G1 X53.594 Y10.591
G1 X53.593 Y10.801
G1 X53.592 Y11.010
G1 X53.591 Y11.220
G1 X53.590 Y11.430
G1 X53.589 Y11.640
G1 X53.588 Y11.849
G1 X53.587 Y12.059
G1 X53.586 Y12.269
G1 X53.585 Y12.479
G1 X53.584 Y12.688
G1 X53.583 Y12.898
G1 X53.582 Y13.108
G1 X53.580 Y13.317
G1 X53.579 Y13.527
G1 X53.578 Y13.737
G1 X53.576 Y13.947
G1 X53.575 Y14.156
G1 X53.574 Y14.366
G1 X53.572 Y14.576
G1 X53.571 Y14.785
G1 X53.569 Y14.995
G1 X53.568 Y15.205
G1 X53.566 Y15.415
G1 X53.565 Y15.624
G1 X53.563 Y15.834
G1 X53.562 Y16.044
G1 X53.560 Y16.254
G1 X53.558 Y16.463
G1 X53.557 Y16.673
G1 X53.555 Y16.883
G1 X53.553 Y17.092
G1 X53.551 Y17.302
G1 X53.549 Y17.512
G1 X53.548 Y17.722
G1 X53.546 Y17.931
G1 X53.544 Y18.141
G1 X53.542 Y18.351
G1 X53.540 Y18.560
G1 X53.538 Y18.770
G1 X53.535 Y18.980
G1 X53.533 Y19.190
G1 X53.531 Y19.399
G1 X53.529 Y19.609
G1 X53.526 Y19.819
G1 X53.524 Y20.029
G1 X53.522 Y20.238
G1 X53.519 Y20.448
G1 X53.517 Y20.658
G1 X53.514 Y20.867
G1 X53.512 Y21.077
G1 X53.509 Y21.287
G1 X53.506 Y21.497
G1 X53.504 Y21.706
G1 X53.501 Y21.916
G1 X53.498 Y22.126
G1 X53.495 Y22.336
G1 X53.492 Y22.545
G1 X53.489 Y22.755
G1 X53.487 Y22.914
G1 X53.486 Y22.965
G1 X53.483 Y23.174
G1 X53.480 Y23.384
G1 X53.477 Y23.594
G1 X53.473 Y23.804
G1 X53.470 Y24.013
G1 X53.466 Y24.223
G1 X53.463 Y24.433
G1 X53.459 Y24.642
G1 X53.456 Y24.852
G1 X53.452 Y25.062
G1 X53.448 Y25.272
G1 X53.444 Y25.481
G1 X53.440 Y25.691
G1 X53.436 Y25.901
G1 X53.432 Y26.111
G1 X53.428 Y26.320
G1 X53.424 Y26.530
G1 X53.419 Y26.740
G1 X53.415 Y26.949
G1 X53.410 Y27.159
G1 X53.406 Y27.369
G1 X53.401 Y27.579
G1 X53.396 Y27.788
G1 X53.391 Y27.998
G1 X53.386 Y28.208
G1 X53.381 Y28.417
G1 X53.376 Y28.627
G1 X53.370 Y28.837
G1 X53.365 Y29.047
G1 X53.359 Y29.256
G1 X53.354 Y29.466
G1 X53.348 Y29.676
G1 X53.342 Y29.886
G1 X53.336 Y30.095
G1 X53.330 Y30.305
G1 X53.323 Y30.515
G1 X53.317 Y30.724
G1 X53.310 Y30.934
G1 X53.303 Y31.144
G1 X53.296 Y31.354
G1 X53.289 Y31.563
G1 X53.282 Y31.773
G1 X53.277 Y31.909
G1 X53.275 Y31.983
G1 X53.267 Y32.192
G1 X53.259 Y32.402
G1 X53.251 Y32.612
G1 X53.243 Y32.822
G1 X53.234 Y33.031
G1 X53.226 Y33.241
G1 X53.217 Y33.451
G1 X53.208 Y33.661
G1 X53.199 Y33.870
G1 X53.189 Y34.080
G1 X53.179 Y34.290
G1 X53.169 Y34.499
G1 X53.159 Y34.709
G1 X53.149 Y34.919
G1 X53.138 Y35.129
G1 X53.127 Y35.338
G1 X53.115 Y35.548
G1 X53.104 Y35.758
G1 X53.092 Y35.968
G1 X53.079 Y36.177
G1 X53.068 Y36.371
G1 X53.067 Y36.387
G1 X53.053 Y36.597
G1 X53.040 Y36.806
G1 X53.026 Y37.016
G1 X53.011 Y37.226
G1 X52.997 Y37.436
G1 X52.981 Y37.645
G1 X52.966 Y37.855
G1 X52.949 Y38.065
G1 X52.933 Y38.274
G1 X52.916 Y38.484
G1 X52.898 Y38.694
G1 X52.879 Y38.904
G1 X52.860 Y39.113
G1 X52.858 Y39.142
G1 X52.841 Y39.323
G1 X52.820 Y39.533
G1 X52.799 Y39.743
G1 X52.777 Y39.952
G1 X52.754 Y40.162
G1 X52.731 Y40.372
G1 X52.706 Y40.581
G1 X52.681 Y40.791
G1 X52.654 Y41.001
G1 X52.648 Y41.049
G1 X52.627 Y41.211
G1 X52.598 Y41.420
G1 X52.568 Y41.630
G1 X52.537 Y41.840
G1 X52.504 Y42.049
G1 X52.470 Y42.259
G1 X52.438 Y42.450
G1 X52.435 Y42.469
G1 X52.398 Y42.679
G1 X52.359 Y42.888
G1 X52.318 Y43.098
G1 X52.275 Y43.308
G1 X52.230 Y43.518
G1 X52.229 Y43.523
G1 X52.182 Y43.727
G1 X52.132 Y43.937
G1 X52.079 Y44.147
G1 X52.024 Y44.356
G1 X52.019 Y44.373
G1 X51.964 Y44.566
G1 X51.901 Y44.776
G1 X51.835 Y44.986
G1 X51.809 Y45.064
G1 X51.764 Y45.195
G1 X51.688 Y45.405
G1 X51.608 Y45.615
G1 X51.600 Y45.636
G1 X51.521 Y45.824
G1 X51.428 Y46.034
G1 X51.390 Y46.117
G1 X51.328 Y46.244
G1 X51.221 Y46.454
G1 X51.180 Y46.529
G1 X51.104 Y46.663
G1 X50.977 Y46.873
G1 X50.970 Y46.884
G1 X50.839 Y47.083
G1 X50.761 Y47.194
G1 X50.687 Y47.293
G1 X50.551 Y47.466
G1 X50.521 Y47.502
G1 X50.341 Y47.708
G1 X50.337 Y47.712
G1 X50.133 Y47.922
G1 X50.131 Y47.923
G1 X49.922 Y48.117
G1 X49.905 Y48.131
G1 X49.712 Y48.292
G1 X49.648 Y48.341
G1 X49.502 Y48.450
G1 X49.357 Y48.551
G1 X49.293 Y48.594
G1 X49.083 Y48.726
G1 X49.025 Y48.761
G1 X48.873 Y48.847
G1 X48.663 Y48.959
G1 X48.640 Y48.970
G1 X48.454 Y49.061
G1 X48.244 Y49.157
G1 X48.190 Y49.180
G1 X48.034 Y49.245
G1 X47.824 Y49.327
G1 X47.655 Y49.390
G1 X47.615 Y49.404
G1 X47.405 Y49.476
G1 X47.195 Y49.543
G1 X47.008 Y49.600
G1 X46.986 Y49.606
G1 X46.776 Y49.665
G1 X46.566 Y49.721
G1 X46.356 Y49.773
G1 X46.205 Y49.809
G1 X46.147 Y49.823
G1 X45.937 Y49.869
G1 X45.727 Y49.914
G1 X45.518 Y49.955
G1 X45.308 Y49.995
G1 X45.176 Y50.019
G1 X45.098 Y50.033
G1 X44.888 Y50.068
G1 X44.679 Y50.102
G1 X44.469 Y50.135
G1 X44.259 Y50.165
G1 X44.049 Y50.195
G1 X43.840 Y50.222
G1 X43.791 Y50.229
G1 X43.630 Y50.249
G1 X43.420 Y50.274
G1 X43.211 Y50.298
G1 X43.001 Y50.321
G1 X42.791 Y50.344
G1 X42.581 Y50.365
G1 X42.372 Y50.385
G1 X42.162 Y50.404
G1 X41.952 Y50.422
G1 X41.763 Y50.438
G1 X41.743 Y50.440
G1 X41.533 Y50.457
G1 X41.323 Y50.473
G1 X41.113 Y50.488
G1 X40.904 Y50.503
G1 X40.694 Y50.517
G1 X40.484 Y50.531
G1 X40.274 Y50.544
G1 X40.065 Y50.556
G1 X39.855 Y50.568
G1 X39.645 Y50.579
G1 X39.436 Y50.590
G1 X39.226 Y50.600
G1 X39.016 Y50.610
G1 X38.806 Y50.619
G1 X38.597 Y50.628
G1 X38.387 Y50.637
G1 X38.177 Y50.645
G1 X38.084 Y50.648
G1 X37.968 Y50.652
G1 X37.758 Y50.660
G1 X37.548 Y50.667
G1 X37.338 Y50.673
G1 X37.129 Y50.679
G1 X36.919 Y50.685
G1 X36.709 Y50.691
G1 X36.499 Y50.696
G1 X36.290 Y50.701
G1 X36.080 Y50.705
G1 X35.870 Y50.709
G1 X35.661 Y50.713
G1 X35.451 Y50.717
G1 X35.241 Y50.720
G1 X35.031 Y50.723
G1 X34.822 Y50.726
G1 X34.612 Y50.729
G1 X34.402 Y50.731
G1 X34.192 Y50.733
G1 X33.983 Y50.735
G1 X33.773 Y50.736
G1 X33.563 Y50.737
G1 X33.354 Y50.738
G1 X33.144 Y50.739
G1 X32.934 Y50.740
G1 X32.724 Y50.740
G1 X32.515 Y50.740
G1 X32.305 Y50.740
G1 X32.095 Y50.739
G1 X31.886 Y50.738
G1 X31.676 Y50.738
G1 X31.466 Y50.736
G1 X31.256 Y50.735
G1 X31.047 Y50.733
G1 X30.837 Y50.731
G1 X30.627 Y50.729
G1 X30.417 Y50.727
G1 X30.208 Y50.724
G1 X29.998 Y50.722
G1 X29.788 Y50.719
G1 X29.579 Y50.715
G1 X29.369 Y50.712
G1 X29.159 Y50.708
G1 X28.949 Y50.704
G1 X28.740 Y50.700
G1 X28.530 Y50.695
G1 X28.320 Y50.691
G1 X28.111 Y50.686
G1 X27.901 Y50.681
G1 X27.691 Y50.675
G1 X27.481 Y50.669
G1 X27.272 Y50.663
G1 X27.062 Y50.657
G1 X26.852 Y50.651
G1 X26.767 Y50.648
G1 X26.642 Y50.644
G1 X26.433 Y50.637
G1 X26.223 Y50.630
G1 X26.013 Y50.622
G1 X25.804 Y50.614
G1 X25.594 Y50.606
G1 X25.384 Y50.598
G1 X25.174 Y50.589
G1 X24.965 Y50.580
G1 X24.755 Y50.571
G1 X24.545 Y50.561
G1 X24.336 Y50.551
G1 X24.126 Y50.541
G1 X23.916 Y50.530
G1 X23.706 Y50.519
G1 X23.497 Y50.508
G1 X23.287 Y50.496
G1 X23.077 Y50.484
G1 X22.867 Y50.472
G1 X22.658 Y50.459
G1 X22.448 Y50.446
G1 X22.326 Y50.438
G1 X22.238 Y50.433
G1 X22.029 Y50.419
G1 X21.819 Y50.404
G1 X21.609 Y50.389
G1 X21.399 Y50.374
G1 X21.190 Y50.358
G1 X20.980 Y50.342
G1 X20.770 Y50.325
G1 X20.560 Y50.308
G1 X20.351 Y50.290
G1 X20.141 Y50.272
G1 X19.931 Y50.253
G1 X19.722 Y50.234
G1 X19.666 Y50.229
G1 X19.512 Y50.214
G1 X19.302 Y50.193
G1 X19.092 Y50.172
G1 X18.883 Y50.150
G1 X18.673 Y50.127
G1 X18.463 Y50.104
G1 X18.254 Y50.080
G1 X18.044 Y50.055
G1 X17.834 Y50.030
G1 X17.749 Y50.019
G1 X17.624 Y50.003
G1 X17.415 Y49.976
G1 X17.205 Y49.948
G1 X16.995 Y49.918
G1 X16.785 Y49.888
G1 X16.576 Y49.857
G1 X16.366 Y49.825
G1 X16.265 Y49.809
G1 X16.156 Y49.792
G1 X15.947 Y49.757
G1 X15.737 Y49.722
G1 X15.527 Y49.685
G1 X15.317 Y49.647
G1 X15.108 Y49.607
G1 X15.068 Y49.600
G1 X14.898 Y49.566
G1 X14.688 Y49.523
G1 X14.479 Y49.479
G1 X14.269 Y49.433
G1 X14.077 Y49.390
G1 X14.059 Y49.386
G1 X13.849 Y49.336
G1 X13.640 Y49.284
G1 X13.430 Y49.231
G1 X13.239 Y49.180
G1 X13.220 Y49.175
G1 X13.010 Y49.117
G1 X12.801 Y49.056
G1 X12.591 Y48.993
G1 X12.519 Y48.970
G1 X12.381 Y48.927
G1 X12.172 Y48.857
G1 X11.962 Y48.785
G1 X11.893 Y48.761
G1 X11.752 Y48.709
G1 X11.542 Y48.630
G1 X11.343 Y48.551
G1 X11.333 Y48.547
G1 X11.123 Y48.459
G1 X10.913 Y48.367
G1 X10.856 Y48.341
G1 X10.704 Y48.270
G1 X10.494 Y48.168
G1 X10.420 Y48.131
G1 X10.284 Y48.061
G1 X10.074 Y47.947
G1 X10.029 Y47.922
G1 X9.865 Y47.827
G1 X9.675 Y47.712
G1 X9.655 Y47.699
G1 X9.445 Y47.564
G1 X9.353 Y47.502
G1 X9.235 Y47.420
G1 X9.060 Y47.293
G1 X9.026 Y47.267
G1 X8.816 Y47.104
G1 X8.790 Y47.083
G1 X8.606 Y46.929
G1 X8.543 Y46.873
G1 X8.397 Y46.741
G1 X8.314 Y46.663
G1 X8.187 Y46.540
G1 X8.102 Y46.454
G1 X7.977 Y46.323
G1 X7.904 Y46.244
G1 X7.767 Y46.089
G1 X7.721 Y46.034
G1 X7.558 Y45.835
G1 X7.549 Y45.824
G1 X7.389 Y45.615
G1 X7.348 Y45.559
G1 X7.238 Y45.405
G1 X7.138 Y45.258
G1 X7.097 Y45.195
G1 X6.964 Y44.986
G1 X6.928 Y44.928
G1 X6.838 Y44.776
G1 X6.719 Y44.566
G1 X6.719 Y44.566
G1 X6.606 Y44.356
G1 X6.509 Y44.165
G1 X6.500 Y44.147
G1 X6.399 Y43.937
G1 X6.303 Y43.727
G1 X6.299 Y43.720
G1 X6.211 Y43.518
G1 X6.124 Y43.308
G1 X6.090 Y43.223
G1 X6.041 Y43.098
G1 X5.961 Y42.888
G1 X5.885 Y42.679
G1 X5.880 Y42.663
G1 X5.813 Y42.469
G1 X5.743 Y42.259
G1 X5.677 Y42.049
G1 X5.670 Y42.029
G1 X5.613 Y41.840
G1 X5.551 Y41.630
G1 X5.492 Y41.420
G1 X5.460 Y41.303
G1 X5.436 Y41.211
G1 X5.381 Y41.001
G1 X5.329 Y40.791
G1 X5.278 Y40.581
G1 X5.251 Y40.465
G1 X5.229 Y40.372
G1 X5.182 Y40.162
G1 X5.137 Y39.952
G1 X5.093 Y39.743
G1 X5.050 Y39.533
G1 X5.041 Y39.485
G1 X5.009 Y39.323
G1 X4.970 Y39.113
G1 X4.931 Y38.904
G1 X4.894 Y38.694
G1 X4.858 Y38.484
G1 X4.831 Y38.324
G1 X4.823 Y38.274
G1 X4.789 Y38.065
G1 X4.756 Y37.855
G1 X4.725 Y37.645
G1 X4.694 Y37.436
G1 X4.664 Y37.226
G1 X4.634 Y37.016
G1 X4.622 Y36.922
G1 X4.606 Y36.806
G1 X4.578 Y36.597
G1 X4.552 Y36.387
G1 X4.525 Y36.177
G1 X4.500 Y35.968
G1 X4.475 Y35.758
G1 X4.451 Y35.548
G1 X4.428 Y35.338
G1 X4.412 Y35.193
G1 X4.405 Y35.129
G1 X4.383 Y34.919
G1 X4.361 Y34.709
G1 X4.340 Y34.499
G1 X4.319 Y34.290
G1 X4.299 Y34.080
G1 X4.279 Y33.870
G1 X4.260 Y33.661
G1 X4.241 Y33.451
G1 X4.223 Y33.241
G1 X4.205 Y33.031
G1 X4.202 Y32.997
G1 X4.188 Y32.822
G1 X4.170 Y32.612
G1 X4.154 Y32.402
G1 X4.137 Y32.192
G1 X4.122 Y31.983
G1 X4.106 Y31.773
G1 X4.091 Y31.563
G1 X4.076 Y31.354
G1 X4.061 Y31.144
G1 X4.047 Y30.934
G1 X4.033 Y30.724
G1 X4.019 Y30.515
G1 X4.006 Y30.305
G1 X3.993 Y30.095
G1 X3.992 Y30.090
G1 X3.980 Y29.886
G1 X3.967 Y29.676
G1 X3.955 Y29.466
G1 X3.943 Y29.256
G1 X3.931 Y29.047
G1 X3.919 Y28.837
G1 X3.908 Y28.627
G1 X3.897 Y28.417
G1 X3.886 Y28.208
G1 X3.875 Y27.998
G1 X3.865 Y27.788
G1 X3.855 Y27.579
G1 X3.844 Y27.369
G1 X3.835 Y27.159
G1 X3.825 Y26.949
G1 X3.815 Y26.740
G1 X3.806 Y26.530
G1 X3.797 Y26.320
G1 X3.788 Y26.111
G1 X3.783 Y25.987
G1 X3.779 Y25.901
G1 X3.770 Y25.691
G1 X3.762 Y25.481
G1 X3.754 Y25.272
G1 X3.745 Y25.062
G1 X3.737 Y24.852
G1 X3.729 Y24.642
G1 X3.722 Y24.433
G1 X3.714 Y24.223
G1 X3.707 Y24.013
G1 X3.699 Y23.804
G1 X3.692 Y23.594
G1 X3.685 Y23.384
G1 X3.678 Y23.174
G1 X3.671 Y22.965
G1 X3.665 Y22.755
G1 X3.658 Y22.545
G1 X3.652 Y22.336
G1 X3.645 Y22.126
G1 X3.639 Y21.916
G1 X3.633 Y21.706
G1 X3.627 Y21.497
G1 X3.621 Y21.287
G1 X3.615 Y21.077
G1 X3.610 Y20.867
G1 X3.604 Y20.658
G1 X3.599 Y20.448
G1 X3.593 Y20.238
G1 X3.588 Y20.029
G1 X3.583 Y19.819
G1 X3.578 Y19.609
G1 X3.573 Y19.414
G1 X3.573 Y19.399
G1 X3.568 Y19.190
G1 X3.563 Y18.980
G1 X3.558 Y18.770
G1 X3.553 Y18.560
G1 X3.549 Y18.351
G1 X3.544 Y18.141
G1 X3.540 Y17.931
G1 X3.536 Y17.722
G1 X3.531 Y17.512
G1 X3.527 Y17.302
G1 X3.523 Y17.092
G1 X3.519 Y16.883
G1 X3.515 Y16.673
G1 X3.511 Y16.463
G1 X3.507 Y16.254
G1 X3.504 Y16.044
G1 X3.500 Y15.834
G1 X3.496 Y15.624
G1 X3.493 Y15.415
G1 X3.489 Y15.205
G1 X3.486 Y14.995
G1 X3.483 Y14.785
G1 X3.479 Y14.576
G1 X3.476 Y14.366
G1 X3.473 Y14.156
G1 X3.470 Y13.947
G1 X3.467 Y13.737
G1 X3.464 Y13.527
G1 X3.461 Y13.317
G1 X3.458 Y13.108
G1 X3.456 Y12.898
G1 X3.453 Y12.688
G1 X3.450 Y12.479
G1 X3.448 Y12.269
G1 X3.445 Y12.059
G1 X3.443 Y11.849
G1 X3.440 Y11.640
G1 X3.438 Y11.430
G1 X3.435 Y11.220
G1 X3.433 Y11.010
G1 X3.431 Y10.801
G1 X3.429 Y10.591
G1 X3.427 Y10.381
G1 X3.425 Y10.172
G1 X3.423 Y9.962
G1 X3.421 Y9.752
G1 X3.419 Y9.542
G1 X3.417 Y9.333
G1 X3.415 Y9.123
G1 X3.413 Y8.913
G1 X3.411 Y8.704
G1 X3.410 Y8.494
G1 X3.408 Y8.284
G1 X3.406 Y8.074
G1 X3.405 Y7.865
G1 X3.403 Y7.655
G1 X3.402 Y7.445
G1 X3.401 Y7.235
G1 X3.399 Y7.026
G1 X3.398 Y6.816
G1 X3.397 Y6.606
G1 X3.395 Y6.397
G1 X3.394 Y6.187
G1 X3.393 Y5.977
G1 X3.392 Y5.767
G1 X3.391 Y5.558
G1 X3.390 Y5.348
G1 X3.389 Y5.138
G1 X3.388 Y4.928
G1 X3.387 Y4.719
G1 X3.386 Y4.509
G1 X3.385 Y4.299
G1 X3.384 Y4.090
G1 X3.384 Y3.880
G1 X3.383 Y3.670
G1 X3.382 Y3.460
G1 X3.382 Y3.251
G1 X3.381 Y3.041
G1 X3.381 Y2.831
G1 X3.380 Y2.622
G1 X3.380 Y2.412
G1 X3.379 Y2.202
G1 X3.379 Y1.992
G1 X3.378 Y1.783
G1 X3.378 Y1.573
G1 X3.378 Y1.363
G1 X3.377 Y1.153
G1 X3.377 Y0.944
G1 X3.377 Y0.734
G1 X3.377 Y0.524
G1 X3.377 Y0.315
G1 X3.377 Y0.105
G1 X3.377 Y-0.105
G1 X3.377 Y-0.315
G1 X3.377 Y-0.524
G1 X3.377 Y-0.734
G1 X3.377 Y-0.944
G1 X3.377 Y-1.153
G1 X3.378 Y-1.363
G1 X3.378 Y-1.573
G1 X3.378 Y-1.783
G1 X3.378 Y-1.992
G1 X3.379 Y-2.202
G1 X3.379 Y-2.412
G1 X3.380 Y-2.622
G1 X3.380 Y-2.831
G1 X3.381 Y-3.041
G1 X3.381 Y-3.251
G1 X3.382 Y-3.460
G1 X3.382 Y-3.670
G1 X3.383 Y-3.880
G1 X3.384 Y-4.090
G1 X3.384 Y-4.299
G1 X3.385 Y-4.509
G1 X3.386 Y-4.719
G1 X3.387 Y-4.928
G1 X3.388 Y-5.138
G1 X3.389 Y-5.348
G1 X3.390 Y-5.558
G1 X3.391 Y-5.767
G1 X3.392 Y-5.977
G1 X3.393 Y-6.187
G1 X3.394 Y-6.397
G1 X3.395 Y-6.606
G1 X3.397 Y-6.816
G1 X3.398 Y-7.026
G1 X3.399 Y-7.235
G1 X3.401 Y-7.445
G1 X3.402 Y-7.655
G1 X3.404 Y-7.865
G1 X3.405 Y-8.074
G1 X3.407 Y-8.284
G1 X3.408 Y-8.494
G1 X3.410 Y-8.704
G1 X3.412 Y-8.913
G1 X3.413 Y-9.123
G1 X3.415 Y-9.333
G1 X3.417 Y-9.542
G1 X3.419 Y-9.752
G1 X3.421 Y-9.962
G1 X3.423 Y-10.172
G1 X3.425 Y-10.381
G1 X3.427 Y-10.591
G1 X3.429 Y-10.801
G1 X3.431 Y-11.010
G1 X3.433 Y-11.220
G1 X3.436 Y-11.430
G1 X3.438 Y-11.640
G1 X3.441 Y-11.849
G1 X3.443 Y-12.059
G1 X3.445 Y-12.269
G1 X3.448 Y-12.479
G1 X3.451 Y-12.688
G1 X3.453 Y-12.898
G1 X3.456 Y-13.108
G1 X3.459 Y-13.317
G1 X3.462 Y-13.527
G1 X3.465 Y-13.737
G1 X3.468 Y-13.947
G1 X3.471 Y-14.156
G1 X3.474 Y-14.366
G1 X3.477 Y-14.576
G1 X3.480 Y-14.785
G1 X3.483 Y-14.995
G1 X3.487 Y-15.205
G1 X3.490 Y-15.415
G1 X3.494 Y-15.624
G1 X3.497 Y-15.834
G1 X3.501 Y-16.044
G1 X3.505 Y-16.254
G1 X3.508 Y-16.463
G1 X3.512 Y-16.673
G1 X3.516 Y-16.883
G1 X3.520 Y-17.092
G1 X3.524 Y-17.302
G1 X3.528 Y-17.512
G1 X3.532 Y-17.722
G1 X3.537 Y-17.931
G1 X3.541 Y-18.141
G1 X3.545 Y-18.351
G1 X3.550 Y-18.560
G1 X3.555 Y-18.770
G1 X3.559 Y-18.980
G1 X3.564 Y-19.190
G1 X3.569 Y-19.399
G1 X3.573 Y-19.568
G1 X3.574 Y-19.609
G1 X3.579 Y-19.819
G1 X3.584 Y-20.029
G1 X3.589 Y-20.238
G1 X3.595 Y-20.448
G1 X3.600 Y-20.658
G1 X3.606 Y-20.867
G1 X3.611 Y-21.077
G1 X3.617 Y-21.287
G1 X3.623 Y-21.497
G1 X3.629 Y-21.706
G1 X3.635 Y-21.916
G1 X3.641 Y-22.126
G1 X3.647 Y-22.336
G1 X3.654 Y-22.545
G1 X3.660 Y-22.755
G1 X3.667 Y-22.965
G1 X3.674 Y-23.174
G1 X3.680 Y-23.384
G1 X3.687 Y-23.594
G1 X3.695 Y-23.804
G1 X3.702 Y-24.013
G1 X3.709 Y-24.223
G1 X3.717 Y-24.433
G1 X3.724 Y-24.642
G1 X3.732 Y-24.852
G1 X3.740 Y-25.062
G1 X3.748 Y-25.272
G1 X3.757 Y-25.481
G1 X3.765 Y-25.691
G1 X3.774 Y-25.901
G1 X3.782 Y-26.111
G1 X3.783 Y-26.116
G1 X3.791 Y-26.320
G1 X3.800 Y-26.530
G1 X3.810 Y-26.740
G1 X3.819 Y-26.949
G1 X3.829 Y-27.159
G1 X3.839 Y-27.369
G1 X3.849 Y-27.579
G1 X3.859 Y-27.788
G1 X3.869 Y-27.998
G1 X3.880 Y-28.208
G1 X3.891 Y-28.417
G1 X3.902 Y-28.627
G1 X3.913 Y-28.837
G1 X3.925 Y-29.047
G1 X3.936 Y-29.256
G1 X3.948 Y-29.466
G1 X3.961 Y-29.676
G1 X3.973 Y-29.886
G1 X3.986 Y-30.095
G1 X3.992 Y-30.202
G1 X3.999 Y-30.305
G1 X4.012 Y-30.515
G1 X4.026 Y-30.724
G1 X4.040 Y-30.934
G1 X4.054 Y-31.144
G1 X4.068 Y-31.354
G1 X4.083 Y-31.563
G1 X4.098 Y-31.773
G1 X4.114 Y-31.983
G1 X4.130 Y-32.192
G1 X4.146 Y-32.402
G1 X4.162 Y-32.612
G1 X4.179 Y-32.822
G1 X4.197 Y-33.031
G1 X4.202 Y-33.095
G1 X4.214 Y-33.241
G1 X4.233 Y-33.451
G1 X4.251 Y-33.661
G1 X4.270 Y-33.870
G1 X4.290 Y-34.080
G1 X4.310 Y-34.290
G1 X4.331 Y-34.499
G1 X4.352 Y-34.709
G1 X4.373 Y-34.919
G1 X4.395 Y-35.129
G1 X4.412 Y-35.281
G1 X4.418 Y-35.338
G1 X4.441 Y-35.548
G1 X4.465 Y-35.758
G1 X4.490 Y-35.968
G1 X4.515 Y-36.177
G1 X4.541 Y-36.387
G1 X4.568 Y-36.597
G1 X4.595 Y-36.806
G1 X4.622 Y-37.002
G1 X4.623 Y-37.016
G1 X4.652 Y-37.226
G1 X4.682 Y-37.436
G1 X4.713 Y-37.645
G1 X4.745 Y-37.855
G1 X4.778 Y-38.065
G1 X4.811 Y-38.274
G1 X4.831 Y-38.396
G1 X4.846 Y-38.484
G1 X4.882 Y-38.694
G1 X4.919 Y-38.904
G1 X4.957 Y-39.113
G1 X4.996 Y-39.323
G1 X5.037 Y-39.533
G1 X5.041 Y-39.552
G1 X5.079 Y-39.743
G1 X5.123 Y-39.952
G1 X5.168 Y-40.162
G1 X5.215 Y-40.372
G1 X5.251 Y-40.527
G1 X5.264 Y-40.581
G1 X5.314 Y-40.791
G1 X5.366 Y-41.001
G1 X5.420 Y-41.211
G1 X5.460 Y-41.360
G1 X5.477 Y-41.420
G1 X5.535 Y-41.630
G1 X5.597 Y-41.840
G1 X5.660 Y-42.049
G1 X5.670 Y-42.082
G1 X5.726 Y-42.259
G1 X5.796 Y-42.469
G1 X5.868 Y-42.679
G1 X5.880 Y-42.713
G1 X5.943 Y-42.888
G1 X6.022 Y-43.098
G1 X6.090 Y-43.269
G1 X6.105 Y-43.308
G1 X6.192 Y-43.518
G1 X6.283 Y-43.727
G1 X6.299 Y-43.764
G1 X6.379 Y-43.937
G1 X6.479 Y-44.147
G1 X6.509 Y-44.207
G1 X6.585 Y-44.356
G1 X6.697 Y-44.566
G1 X6.719 Y-44.605
G1 X6.815 Y-44.776
G1 X6.928 Y-44.966
G1 X6.941 Y-44.986
G1 X7.073 Y-45.195
G1 X7.138 Y-45.294
G1 X7.214 Y-45.405
G1 X7.348 Y-45.593
G1 X7.364 Y-45.615
G1 X7.524 Y-45.824
G1 X7.558 Y-45.867
G1 X7.694 Y-46.034
G1 X7.767 Y-46.120
G1 X7.877 Y-46.244
G1 X7.977 Y-46.353
G1 X8.073 Y-46.454
G1 X8.187 Y-46.568
G1 X8.284 Y-46.663
G1 X8.397 Y-46.768
G1 X8.512 Y-46.873
G1 X8.606 Y-46.955
G1 X8.759 Y-47.083
G1 X8.816 Y-47.129
G1 X9.026 Y-47.291
G1 X9.027 Y-47.293
G1 X9.235 Y-47.444
G1 X9.320 Y-47.502
G1 X9.445 Y-47.587
G1 X9.640 Y-47.712
G1 X9.655 Y-47.721
G1 X9.865 Y-47.848
G1 X9.992 Y-47.922
G1 X10.074 Y-47.968
G1 X10.284 Y-48.081
G1 X10.382 Y-48.131
G1 X10.494 Y-48.188
G1 X10.704 Y-48.289
G1 X10.816 Y-48.341
G1 X10.913 Y-48.385
G1 X11.123 Y-48.477
G1 X11.301 Y-48.551
G1 X11.333 Y-48.564
G1 X11.542 Y-48.646
G1 X11.752 Y-48.725
G1 X11.849 Y-48.761
G1 X11.962 Y-48.801
G1 X12.172 Y-48.873
G1 X12.381 Y-48.941
G1 X12.472 Y-48.970
G1 X12.591 Y-49.007
G1 X12.801 Y-49.070
G1 X13.010 Y-49.131
G1 X13.189 Y-49.180
G1 X13.220 Y-49.189
G1 X13.430 Y-49.244
G1 X13.640 Y-49.297
G1 X13.849 Y-49.349
G1 X14.024 Y-49.390
G1 X14.059 Y-49.398
G1 X14.269 Y-49.445
G1 X14.479 Y-49.491
G1 X14.688 Y-49.535
G1 X14.898 Y-49.577
G1 X15.011 Y-49.600
G1 X15.108 Y-49.618
G1 X15.317 Y-49.657
G1 X15.527 Y-49.695
G1 X15.737 Y-49.732
G1 X15.947 Y-49.768
G1 X16.156 Y-49.802
G1 X16.202 Y-49.809
G1 X16.366 Y-49.835
G1 X16.576 Y-49.867
G1 X16.785 Y-49.898
G1 X16.995 Y-49.928
G1 X17.205 Y-49.957
G1 X17.415 Y-49.985
G1 X17.624 Y-50.012
G1 X17.679 Y-50.019
G1 X17.834 Y-50.038
G1 X18.044 Y-50.064
G1 X18.254 Y-50.088
G1 X18.463 Y-50.112
G1 X18.673 Y-50.135
G1 X18.883 Y-50.158
G1 X19.092 Y-50.180
G1 X19.302 Y-50.201
G1 X19.512 Y-50.222
G1 X19.587 Y-50.229
G1 X19.722 Y-50.241
G1 X19.931 Y-50.261
G1 X20.141 Y-50.279
G1 X20.351 Y-50.298
G1 X20.560 Y-50.315
G1 X20.770 Y-50.332
G1 X31.047 Y-46.875
G1 X31.256 Y-46.881
G1 X31.466 Y-46.886
G1 X31.676 Y-46.890
G1 X31.886 Y-46.893
G1 X32.095 Y-46.895
G1 X32.305 Y-46.897
G1 X32.515 Y-46.897
G1 X32.724 Y-46.897
G1 X32.934 Y-46.896
G1 X33.144 Y-46.894
G1 X33.354 Y-46.891
G1 X33.563 Y-46.887
G1 X33.773 Y-46.882
G1 X33.983 Y-46.877
G1 X34.100 Y-46.873
G1 X34.192 Y-46.870
G1 X34.402 Y-46.863
G1 X34.612 Y-46.854
G1 X34.822 Y-46.845
G1 X35.031 Y-46.834
G1 X35.241 Y-46.823
G1 X35.451 Y-46.810
G1 X35.661 Y-46.797
G1 X35.870 Y-46.782
G1 X36.080 Y-46.766
G1 X36.290 Y-46.750
G1 X36.499 Y-46.732
G1 X36.709 Y-46.712
G1 X36.919 Y-46.692
G1 X37.129 Y-46.671
G1 X37.195 Y-46.663
G1 X37.338 Y-46.648
G1 X37.548 Y-46.623
G1 X37.758 Y-46.598
G1 X37.968 Y-46.571
G1 X38.177 Y-46.543
G1 X38.387 Y-46.513
G1 X38.597 Y-46.481
G1 X38.774 Y-46.454
G1 X38.806 Y-46.449
G1 X39.016 Y-46.414
G1 X39.226 Y-46.378
G1 X39.436 Y-46.339
G1 X39.645 Y-46.300
G1 X39.855 Y-46.258
G1 X39.923 Y-46.244
G1 X40.065 Y-46.214
G1 X40.274 Y-46.168
G1 X40.484 Y-46.120
G1 X40.694 Y-46.070
G1 X40.838 Y-46.034
G1 X40.904 Y-46.018
G1 X41.113 Y-45.963
G1 X41.323 Y-45.905
G1 X41.533 Y-45.845
G1 X41.602 Y-45.824
G1 X41.743 Y-45.782
G1 X41.952 Y-45.716
G1 X42.162 Y-45.647
G1 X42.255 Y-45.615
G1 X42.372 Y-45.574
G1 X42.581 Y-45.498
G1 X42.791 Y-45.419
G1 X42.826 Y-45.405
G1 X43.001 Y-45.335
G1 X43.211 Y-45.248
G1 X43.331 Y-45.195
G1 X43.420 Y-45.156
G1 X43.630 Y-45.059
G1 X43.784 Y-44.986
G1 X43.840 Y-44.958
G1 X44.049 Y-44.852
G1 X44.192 Y-44.776
G1 X44.259 Y-44.739
G1 X44.469 Y-44.621
G1 X44.563 Y-44.566
G1 X44.679 Y-44.497
G1 X44.888 Y-44.366
G1 X44.903 Y-44.356
G1 X45.098 Y-44.227
G1 X45.214 Y-44.147
G1 X45.308 Y-44.080
G1 X45.502 Y-43.937
G1 X45.518 Y-43.925
G1 X45.727 Y-43.761
G1 X45.769 Y-43.727
G1 X45.937 Y-43.587
G1 X46.017 Y-43.518
G1 X46.147 Y-43.402
G1 X46.248 Y-43.308
G1 X46.356 Y-43.205
G1 X46.464 Y-43.098
G1 X46.566 Y-42.995
G1 X46.667 Y-42.888
G1 X46.776 Y-42.771
G1 X46.858 Y-42.679
G1 X46.986 Y-42.531
G1 X47.038 Y-42.469
G1 X47.195 Y-42.275
G1 X47.208 Y-42.259
G1 X47.368 Y-42.049
G1 X47.405 Y-41.999
G1 X47.519 Y-41.840
G1 X47.615 Y-41.703
G1 X47.664 Y-41.630
G1 X47.800 Y-41.420
G1 X47.824 Y-41.383
G1 X47.930 Y-41.211
G1 X48.034 Y-41.036
G1 X48.055 Y-41.001
G1 X48.173 Y-40.791
G1 X48.244 Y-40.660
G1 X48.285 Y-40.581
G1 X48.393 Y-40.372
G1 X48.454 Y-40.251
G1 X48.497 Y-40.162
G1 X48.595 Y-39.952
G1 X48.663 Y-39.803
G1 X48.690 Y-39.743
G1 X48.781 Y-39.533
G1 X48.868 Y-39.323
G1 X48.873 Y-39.312
G1 X48.952 Y-39.113
G1 X49.033 Y-38.904
G1 X49.083 Y-38.770
G1 X49.110 Y-38.694
G1 X49.185 Y-38.484
G1 X49.257 Y-38.274
G1 X49.293 Y-38.169
G1 X49.327 Y-38.065
G1 X49.393 Y-37.855
G1 X49.458 Y-37.645
G1 X49.502 Y-37.499
G1 X49.521 Y-37.436
G1 X49.581 Y-37.226
G1 X49.640 Y-37.016
G1 X49.696 Y-36.806
G1 X49.712 Y-36.748
G1 X49.751 Y-36.597
G1 X49.804 Y-36.387
G1 X49.855 Y-36.177
G1 X49.905 Y-35.968
G1 X49.922 Y-35.897
G1 X49.953 Y-35.758
G1 X50.000 Y-35.548
G1 X50.046 Y-35.338
G1 X50.090 Y-35.129
G1 X50.131 Y-34.927
G1 X50.133 Y-34.919
G1 X50.174 Y-34.709
G1 X50.215 Y-34.499
G1 X50.254 Y-34.290
G1 X50.293 Y-34.080
G1 X50.330 Y-33.870
G1 X50.341 Y-33.806
G1 X50.366 Y-33.661
G1 X50.401 Y-33.451
G1 X50.436 Y-33.241
G1 X50.469 Y-33.031
G1 X50.502 Y-32.822
G1 X50.534 Y-32.612
G1 X50.551 Y-32.496
G1 X50.565 Y-32.402
G1 X50.595 Y-32.192
G1 X50.624 Y-31.983
G1 X50.653 Y-31.773
G1 X50.681 Y-31.563
G1 X50.708 Y-31.354
G1 X50.735 Y-31.144
G1 X50.761 Y-30.939
G1 X50.761 Y-30.934
G1 X50.786 Y-30.724
G1 X50.811 Y-30.515
G1 X50.835 Y-30.305
G1 X50.859 Y-30.095
G1 X50.882 Y-29.886
G1 X50.905 Y-29.676
G1 X50.927 Y-29.466
G1 X50.949 Y-29.256
G1 X50.970 Y-29.047
G1 X50.970 Y-29.046
G1 X50.991 Y-28.837
G1 X51.011 Y-28.627
G1 X51.031 Y-28.417
G1 X51.050 Y-28.208
G1 X51.069 Y-27.998
G1 X51.088 Y-27.788
G1 X51.106 Y-27.579
G1 X51.124 Y-27.369
G1 X51.141 Y-27.159
G1 X51.158 Y-26.949
G1 X51.175 Y-26.740
G1 X51.180 Y-26.675
G1 X51.191 Y-26.530
G1 X51.207 Y-26.320
G1 X51.223 Y-26.111
G1 X51.238 Y-25.901
G1 X51.253 Y-25.691
G1 X51.268 Y-25.481
G1 X51.282 Y-25.272
G1 X51.296 Y-25.062
G1 X51.310 Y-24.852
G1 X51.324 Y-24.642
G1 X51.337 Y-24.433
G1 X51.350 Y-24.223
G1 X51.363 Y-24.013
G1 X51.376 Y-23.804
G1 X51.388 Y-23.594
G1 X51.390 Y-23.564
G1 X51.400 Y-23.384
G1 X51.412 Y-23.174
G1 X51.423 Y-22.965
G1 X51.435 Y-22.755
G1 X51.446 Y-22.545
G1 X51.457 Y-22.336
G1 X51.467 Y-22.126
G1 X51.478 Y-21.916
G1 X51.488 Y-21.706
G1 X51.498 Y-21.497
G1 X51.508 Y-21.287
G1 X51.518 Y-21.077
G1 X51.527 Y-20.867
G1 X51.537 Y-20.658
G1 X51.546 Y-20.448
G1 X51.555 Y-20.238
G1 X51.564 Y-20.029
G1 X51.572 Y-19.819
G1 X51.581 Y-19.609
G1 X51.589 Y-19.399
G1 X51.597 Y-19.190
G1 X51.600 Y-19.131
G1 X51.605 Y-18.980
G1 X51.613 Y-18.770
G1 X51.621 Y-18.560
G1 X51.628 Y-18.351
G1 X51.635 Y-18.141
G1 X51.643 Y-17.931
G1 X51.650 Y-17.722
G1 X51.657 Y-17.512
G1 X51.663 Y-17.302
G1 X51.670 Y-17.092
G1 X51.676 Y-16.883
G1 X51.683 Y-16.673
G1 X51.689 Y-16.463
G1 X51.695 Y-16.254
G1 X51.701 Y-16.044
G1 X51.707 Y-15.834
G1 X51.713 Y-15.624
G1 X51.719 Y-15.415
G1 X51.724 Y-15.205
G1 X51.730 Y-14.995
G1 X51.735 Y-14.785
G1 X51.740 Y-14.576
G1 X51.745 Y-14.366
G1 X51.750 Y-14.156
G1 X51.755 Y-13.947
G1 X51.760 Y-13.737
G1 X51.765 Y-13.527
G1 X51.769 Y-13.317
G1 X51.774 Y-13.108
G1 X51.778 Y-12.898
G1 X51.782 Y-12.688
G1 X51.787 Y-12.479
G1 X51.791 Y-12.269
G1 X51.795 Y-12.059
G1 X51.799 Y-11.849
G1 X51.802 Y-11.640
G1 X51.806 Y-11.430
G1 X51.809 Y-11.248
G1 X51.810 Y-11.220
G1 X51.813 Y-11.010
G1 X51.817 Y-10.801
G1 X51.820 Y-10.591
G1 X51.823 Y-10.381
G1 X51.826 Y-10.172
G1 X51.829 Y-9.962
G1 X51.832 Y-9.752
G1 X51.835 Y-9.542
G1 X51.838 Y-9.333
G1 X51.841 Y-9.123
G1 X51.844 Y-8.913
G1 X51.846 Y-8.704
G1 X51.849 Y-8.494
G1 X51.851 Y-8.284
G1 X51.854 Y-8.074
G1 X51.856 Y-7.865
G1 X51.858 Y-7.655
G1 X51.860 Y-7.445
G1 X51.862 Y-7.235
G1 X51.865 Y-7.026
G1 X51.866 Y-6.816
G1 X51.868 Y-6.606
G1 X51.870 Y-6.397
G1 X51.872 Y-6.187
G1 X51.874 Y-5.977
G1 X51.875 Y-5.767
G1 X51.877 Y-5.558
G1 X51.878 Y-5.348
G1 X51.880 Y-5.138
G1 X51.881 Y-4.928
G1 X51.882 Y-4.719
G1 X51.884 Y-4.509
G1 X51.885 Y-4.299
G1 X51.886 Y-4.090
G1 X51.887 Y-3.880
G1 X51.888 Y-3.670
G1 X51.889 Y-3.460
G1 X51.890 Y-3.251
G1 X51.891 Y-3.041
G1 X51.891 Y-2.831
G1 X51.892 Y-2.622
G1 X51.893 Y-2.412
G1 X51.893 Y-2.202
G1 X51.894 Y-1.992
G1 X51.894 Y-1.783
G1 X51.895 Y-1.573
G1 X51.895 Y-1.363
G1 X51.895 Y-1.153
G1 X51.896 Y-0.944
G1 X51.896 Y-0.734
G1 X51.896 Y-0.524
G1 X51.896 Y-0.315
G1 X51.896 Y-0.105
G1 X51.896 Y0.105
G1 X51.896 Y0.315
G1 X51.896 Y0.524
G1 X51.896 Y0.734
G1 X51.896 Y0.944
G1 X51.895 Y1.153
G1 X51.895 Y1.363
G1 X51.895 Y1.573
G1 X51.894 Y1.783
G1 X51.894 Y1.992
G1 X51.893 Y2.202
G1 X51.892 Y2.412
G1 X51.892 Y2.622
G1 X51.891 Y2.831
G1 X51.890 Y3.041
G1 X51.889 Y3.251
G1 X51.889 Y3.460
G1 X51.888 Y3.670
G1 X51.887 Y3.880
G1 X51.886 Y4.090
G1 X51.884 Y4.299
G1 X51.883 Y4.509
G1 X51.882 Y4.719
G1 X51.881 Y4.928
G1 X51.879 Y5.138
G1 X51.878 Y5.348
G1 X51.876 Y5.558
G1 X51.875 Y5.767
G1 X51.873 Y5.977
G1 X51.871 Y6.187
G1 X51.870 Y6.397
G1 X51.868 Y6.606
G1 X51.866 Y6.816
G1 X51.864 Y7.026
G1 X51.862 Y7.235
G1 X51.860 Y7.445
G1 X51.858 Y7.655
G1 X51.855 Y7.865
G1 X51.853 Y8.074
G1 X51.851 Y8.284
G1 X51.848 Y8.494
G1 X51.846 Y8.704
G1 X51.843 Y8.913
G1 X51.840 Y9.123
G1 X51.837 Y9.333
G1 X51.835 Y9.542
G1 X51.832 Y9.752
G1 X51.829 Y9.962
G1 X51.825 Y10.172
G1 X51.822 Y10.381
G1 X51.819 Y10.591
G1 X51.816 Y10.801
G1 X51.812 Y11.010
G1 X51.809 Y11.190
G1 X51.809 Y11.220
G1 X51.805 Y11.430
G1 X51.801 Y11.640
G1 X51.797 Y11.849
G1 X51.794 Y12.059
G1 X51.790 Y12.269
G1 X51.785 Y12.479
G1 X51.781 Y12.688
G1 X51.777 Y12.898
G1 X51.772 Y13.108
G1 X51.768 Y13.317
G1 X51.763 Y13.527
G1 X51.759 Y13.737
G1 X51.754 Y13.947
G1 X51.749 Y14.156
G1 X51.744 Y14.366
G1 X51.739 Y14.576
G1 X51.734 Y14.785
G1 X51.728 Y14.995
G1 X51.723 Y15.205
G1 X51.717 Y15.415
G1 X51.712 Y15.624
G1 X51.706 Y15.834
G1 X51.700 Y16.044
G1 X51.694 Y16.254
G1 X51.688 Y16.463
G1 X51.681 Y16.673
G1 X51.675 Y16.883
G1 X51.668 Y17.092
G1 X51.662 Y17.302
G1 X51.655 Y17.512
G1 X51.648 Y17.722
G1 X51.641 Y17.931
G1 X51.634 Y18.141
G1 X51.626 Y18.351
G1 X51.619 Y18.560
G1 X51.611 Y18.770
G1 X51.603 Y18.980
G1 X51.600 Y19.083
G1 X51.595 Y19.190
G1 X51.587 Y19.399
G1 X51.579 Y19.609
G1 X51.570 Y19.819
G1 X51.562 Y20.029
G1 X51.553 Y20.238
G1 X51.544 Y20.448
G1 X51.535 Y20.658
G1 X51.525 Y20.867
G1 X51.516 Y21.077
G1 X51.506 Y21.287
G1 X51.496 Y21.497
G1 X51.486 Y21.706
G1 X51.476 Y21.916
G1 X51.465 Y22.126
G1 X51.454 Y22.336
G1 X51.443 Y22.545
G1 X51.432 Y22.755
G1 X51.421 Y22.965
G1 X51.409 Y23.174
G1 X51.398 Y23.384
G1 X51.390 Y23.523
G1 X51.386 Y23.594
G1 X51.373 Y23.804
G1 X51.361 Y24.013
G1 X51.348 Y24.223
G1 X51.335 Y24.433
G1 X51.321 Y24.642
G1 X51.308 Y24.852
G1 X51.294 Y25.062
G1 X51.280 Y25.272
G1 X51.265 Y25.481
G1 X51.250 Y25.691
G1 X51.235 Y25.901
G1 X51.220 Y26.111
G1 X51.204 Y26.320
G1 X51.188 Y26.530
G1 X51.180 Y26.638
G1 X51.172 Y26.740
G1 X51.155 Y26.949
G1 X51.138 Y27.159
G1 X51.121 Y27.369
G1 X51.103 Y27.579
G1 X51.084 Y27.788
G1 X51.066 Y27.998
G1 X51.047 Y28.208
G1 X51.027 Y28.417
G1 X51.008 Y28.627
G1 X50.988 Y28.837
G1 X50.970 Y29.012
G1 X50.967 Y29.047
G1 X50.946 Y29.256
G1 X50.924 Y29.466
G1 X50.901 Y29.676
G1 X50.879 Y29.886
G1 X50.855 Y30.095
G1 X50.832 Y30.305
G1 X50.807 Y30.515
G1 X50.783 Y30.724
G1 X50.761 Y30.907
G1 X50.757 Y30.934
G1 X50.731 Y31.144
G1 X50.704 Y31.354
G1 X50.677 Y31.563
G1 X50.649 Y31.773
G1 X50.620 Y31.983
G1 X50.590 Y32.192
G1 X50.560 Y32.402
G1 X50.551 Y32.467
G1 X50.529 Y32.612
G1 X50.497 Y32.822
G1 X50.464 Y33.031
G1 X50.431 Y33.241
G1 X50.397 Y33.451
G1 X50.361 Y33.661
G1 X50.341 Y33.778
G1 X50.325 Y33.870
G1 X50.288 Y34.080
G1 X50.249 Y34.290
G1 X50.210 Y34.499
G1 X50.169 Y34.709
G1 X50.131 Y34.900
G1 X50.128 Y34.919
G1 X50.084 Y35.129
G1 X50.040 Y35.338
G1 X49.995 Y35.548
G1 X49.948 Y35.758
G1 X49.922 Y35.872
G1 X49.899 Y35.968
G1 X49.849 Y36.177
G1 X49.798 Y36.387
G1 X49.745 Y36.597
G1 X49.712 Y36.724
G1 X49.690 Y36.806
G1 X49.633 Y37.016
G1 X49.575 Y37.226
G1 X49.514 Y37.436
G1 X49.502 Y37.477
G1 X49.451 Y37.645
G1 X49.386 Y37.855
G1 X49.319 Y38.065
G1 X49.293 Y38.147
G1 X49.250 Y38.274
G1 X49.177 Y38.484
G1 X49.103 Y38.694
G1 X49.083 Y38.749
G1 X49.025 Y38.904
G1 X48.944 Y39.113
G1 X48.873 Y39.291
G1 X48.860 Y39.323
G1 X48.772 Y39.533
G1 X48.681 Y39.743
G1 X48.663 Y39.783
G1 X48.586 Y39.952
G1 X48.487 Y40.162
G1 X48.454 Y40.231
G1 X48.384 Y40.372
G1 X48.276 Y40.581
G1 X48.244 Y40.641
G1 X48.162 Y40.791
G1 X48.044 Y41.001
G1 X48.034 Y41.018
G1 X47.919 Y41.211
G1 X47.824 Y41.365
G1 X47.789 Y41.420
G1 X47.652 Y41.630
G1 X47.615 Y41.685
G1 X47.507 Y41.840
G1 X47.405 Y41.982
G1 X47.355 Y42.049
G1 X47.195 Y42.258
G1 X47.195 Y42.259
G1 X47.024 Y42.469
G1 X46.986 Y42.515
G1 X46.844 Y42.679
G1 X46.776 Y42.755
G1 X46.652 Y42.888
G1 X46.566 Y42.979
G1 X46.449 Y43.098
G1 X46.356 Y43.189
G1 X46.232 Y43.308
G1 X46.147 Y43.386
G1 X45.999 Y43.518
G1 X45.937 Y43.572
G1 X45.751 Y43.727
G1 X45.727 Y43.746
G1 X45.518 Y43.911
G1 X45.483 Y43.937
G1 X45.308 Y44.066
G1 X45.194 Y44.147
G1 X45.098 Y44.213
G1 X44.888 Y44.352
G1 X44.881 Y44.356
G1 X44.679 Y44.483
G1 X44.540 Y44.566
G1 X44.469 Y44.608
G1 X44.259 Y44.726
G1 X44.167 Y44.776
G1 X44.049 Y44.838
G1 X43.840 Y44.945
G1 X43.756 Y44.986
G1 X43.630 Y45.046
G1 X43.420 Y45.143
G1 X43.301 Y45.195
G1 X43.211 Y45.235
G1 X43.001 Y45.322
G1 X42.793 Y45.405
G1 X42.791 Y45.406
G1 X42.581 Y45.485
G1 X42.372 Y45.561
G1 X42.218 Y45.615
G1 X42.162 Y45.634
G1 X41.952 Y45.703
G1 X41.743 Y45.769
G1 X41.559 Y45.824
G1 X41.533 Y45.832
G1 X41.323 Y45.893
G1 X41.113 Y45.950
G1 X40.904 Y46.005
G1 X40.789 Y46.034
G1 X40.694 Y46.058
G1 X40.484 Y46.108
G1 X40.274 Y46.156
G1 X40.065 Y46.202
G1 X39.863 Y46.244
G1 X39.855 Y46.246
G1 X39.645 Y46.287
G1 X39.436 Y46.327
G1 X39.226 Y46.365
G1 X39.016 Y46.402
G1 X38.806 Y46.436
G1 X38.696 Y46.454
G1 X38.597 Y46.469
G1 X38.387 Y46.500
G1 X38.177 Y46.530
G1 X37.968 Y46.559
G1 X37.758 Y46.585
G1 X37.548 Y46.611
G1 X37.338 Y46.635
G1 X37.129 Y46.658
G1 X37.078 Y46.663
G1 X36.919 Y46.680
G1 X36.709 Y46.700
G1 X36.499 Y46.719
G1 X36.290 Y46.737
G1 X36.080 Y46.754
G1 X35.870 Y46.769
G1 X35.661 Y46.784
G1 X35.451 Y46.797
G1 X35.241 Y46.810
G1 X35.031 Y46.821
G1 X34.822 Y46.832
G1 X34.612 Y46.841
G1 X34.402 Y46.850
G1 X34.192 Y46.857
G1 X33.983 Y46.864
G1 X33.773 Y46.869
G1 X33.599 Y46.873
G1 X33.563 Y46.874
G1 X33.354 Y46.878
G1 X33.144 Y46.880
G1 X32.934 Y46.882
G1 X32.724 Y46.883
G1 X32.515 Y46.884
G1 X32.305 Y46.883
G1 X32.095 Y46.881
G1 X31.886 Y46.879
G1 X31.676 Y46.876
G1 X31.537 Y46.873
G1 X31.466 Y46.872
G1 X31.256 Y46.867
G1 X31.047 Y46.861
G1 X30.837 Y46.854
G1 X30.627 Y46.847
G1 X30.417 Y46.838
G1 X30.208 Y46.829
G1 X29.998 Y46.819
G1 X29.788 Y46.808
G1 X29.579 Y46.797
G1 X29.369 Y46.784
G1 X29.159 Y46.771
G1 X28.949 Y46.756
G1 X28.740 Y46.741
G1 X28.530 Y46.725
G1 X28.320 Y46.708
G1 X28.111 Y46.690
G1 X27.901 Y46.672
G1 X27.810 Y46.663
G1 X27.691 Y46.652
G1 X27.481 Y46.632
G1 X27.272 Y46.610
G1 X27.062 Y46.588
G1 X26.852 Y46.564
G1 X26.642 Y46.540
G1 X26.433 Y46.515
G1 X26.223 Y46.488
G1 X26.013 Y46.461
G1 X25.959 Y46.454
G1 X25.804 Y46.433
G1 X25.594 Y46.403
G1 X25.384 Y46.372
G1 X25.174 Y46.341
G1 X24.965 Y46.308
G1 X24.755 Y46.274
G1 X24.573 Y46.244
G1 X24.545 Y46.239
G1 X24.336 Y46.203
G1 X24.126 Y46.165
G1 X23.916 Y46.127
G1 X23.706 Y46.087
G1 X23.497 Y46.046
G1 X23.440 Y46.034
G1 X23.287 Y46.003
G1 X23.077 Y45.959
G1 X22.867 Y45.913
G1 X22.658 Y45.867
G1 X22.475 Y45.824
G1 X22.448 Y45.818
G1 X22.238 Y45.768
G1 X22.029 Y45.717
G1 X21.819 Y45.664
G1 X21.631 Y45.615
G1 X21.609 Y45.609
G1 X21.399 Y45.552
G1 X21.190 Y45.494
G1 X20.980 Y45.434
G1 X20.881 Y45.405
G1 X20.770 Y45.372
G1 X20.560 Y45.308
G1 X20.351 Y45.242
G1 X20.207 Y45.195
G1 X20.141 Y45.174
G1 X19.931 Y45.103
G1 X19.722 Y45.031
G1 X19.594 Y44.986
G1 X19.512 Y44.956
G1 X19.302 Y44.879
G1 X19.092 Y44.799
G1 X19.033 Y44.776
G1 X18.883 Y44.716
G1 X18.673 Y44.631
G1 X18.517 Y44.566
G1 X18.463 Y44.543
G1 X18.254 Y44.452
G1 X18.044 Y44.358
G1 X18.040 Y44.356
G1 X17.834 Y44.261
G1 X17.624 Y44.161
G1 X17.596 Y44.147
G1 X17.415 Y44.056
G1 X17.205 Y43.949
G1 X17.182 Y43.937
G1 X16.995 Y43.837
G1 X16.795 Y43.727
G1 X16.785 Y43.722
G1 X16.576 Y43.602
G1 X16.432 Y43.518
G1 X16.366 Y43.478
G1 X16.156 Y43.349
G1 X16.090 Y43.308
G1 X15.947 Y43.216
G1 X15.768 Y43.098
G1 X15.737 Y43.077
G1 X15.527 Y42.933
G1 X15.463 Y42.888
G1 X15.317 Y42.784
G1 X15.175 Y42.679
G1 X15.108 Y42.628
G1 X14.901 Y42.469
G1 X14.898 Y42.466
G1 X14.688 Y42.298
G1 X14.641 Y42.259
G1 X14.479 Y42.122
G1 X14.394 Y42.049
G1 X14.269 Y41.940
G1 X14.158 Y41.840
G1 X14.059 Y41.749
G1 X13.933 Y41.630
G1 X13.849 Y41.550
G1 X13.718 Y41.420
G1 X13.640 Y41.341
G1 X13.512 Y41.211
G1 X13.430 Y41.124
G1 X13.316 Y41.001
G1 X13.220 Y40.896
G1 X13.127 Y40.791
G1 X13.010 Y40.657
G1 X12.946 Y40.581
G1 X12.801 Y40.407
G1 X12.772 Y40.372
G1 X12.605 Y40.162
G1 X12.591 Y40.144
G1 X12.444 Y39.952
G1 X12.381 Y39.868
G1 X12.290 Y39.743
G1 X12.172 Y39.577
G1 X12.140 Y39.533
G1 X11.997 Y39.323
G1 X11.962 Y39.271
G1 X11.858 Y39.113
G1 X11.752 Y38.948
G1 X11.724 Y38.904
G1 X11.595 Y38.694
G1 X11.542 Y38.606
G1 X11.470 Y38.484
G1 X11.349 Y38.274
G1 X11.333 Y38.245
G1 X11.232 Y38.065
G1 X11.123 Y37.862
G1 X11.119 Y37.855
G1 X11.010 Y37.645
G1 X10.913 Y37.455
G1 X10.903 Y37.436
G1 X10.800 Y37.226
G1 X10.704 Y37.023
G1 X10.700 Y37.016
G1 X10.603 Y36.806
G1 X10.509 Y36.597
G1 X10.494 Y36.561
G1 X10.418 Y36.387
G1 X10.329 Y36.177
G1 X10.284 Y36.068
G1 X10.243 Y35.968
G1 X10.159 Y35.758
G1 X10.077 Y35.548
G1 X10.074 Y35.541
G1 X9.998 Y35.338
G1 X9.921 Y35.129
G1 X9.865 Y34.973
G1 X9.845 Y34.919
G1 X9.772 Y34.709
G1 X9.701 Y34.499
G1 X9.655 Y34.363
G1 X9.631 Y34.290
G1 X9.563 Y34.080
G1 X9.497 Y33.870
G1 X9.445 Y33.702
G1 X9.432 Y33.661
G1 X9.370 Y33.451
G1 X9.308 Y33.241
G1 X9.248 Y33.031
G1 X9.235 Y32.986
G1 X9.190 Y32.822
G1 X9.133 Y32.612
G1 X9.077 Y32.402
G1 X9.026 Y32.206
G1 X9.022 Y32.192
G1 X8.969 Y31.983
G1 X8.917 Y31.773
G1 X8.866 Y31.563
G1 X8.816 Y31.354
G1 X8.816 Y31.352
G1 X8.768 Y31.144
G1 X8.720 Y30.934
G1 X8.674 Y30.724
G1 X8.628 Y30.515
G1 X8.606 Y30.412
G1 X8.584 Y30.305
G1 X8.540 Y30.095
G1 X8.497 Y29.886
G1 X8.456 Y29.676
G1 X8.415 Y29.466
G1 X8.397 Y29.371
G1 X8.375 Y29.256
G1 X8.335 Y29.047
G1 X8.297 Y28.837
G1 X8.259 Y28.627
G1 X8.223 Y28.417
G1 X8.187 Y28.211
G1 X8.186 Y28.208
G1 X8.151 Y27.998
G1 X8.116 Y27.788
G1 X8.082 Y27.579
G1 X8.049 Y27.369
G1 X8.016 Y27.159
G1 X7.984 Y26.949
G1 X7.977 Y26.903
G1 X7.953 Y26.740
G1 X7.922 Y26.530
G1 X7.892 Y26.320
G1 X7.862 Y26.111
G1 X7.833 Y25.901
G1 X7.804 Y25.691
G1 X7.776 Y25.481
G1 X7.767 Y25.414
G1 X7.749 Y25.272
G1 X7.722 Y25.062
G1 X7.695 Y24.852
G1 X7.669 Y24.642
G1 X7.644 Y24.433
G1 X7.619 Y24.223
G1 X7.594 Y24.013
G1 X7.570 Y23.804
G1 X7.558 Y23.692
G1 X7.547 Y23.594
G1 X7.523 Y23.384
G1 X7.501 Y23.174
G1 X7.478 Y22.965
G1 X7.456 Y22.755
G1 X7.435 Y22.545
G1 X7.413 Y22.336
G1 X7.393 Y22.126
G1 X7.372 Y21.916
G1 X7.352 Y21.706
G1 X7.348 Y21.662
G1 X7.332 Y21.497
G1 X7.313 Y21.287
G1 X7.294 Y21.077
G1 X7.275 Y20.867
G1 X7.257 Y20.658
G1 X7.239 Y20.448
G1 X7.222 Y20.238
G1 X7.204 Y20.029
G1 X7.187 Y19.819
G1 X7.170 Y19.609
G1 X7.154 Y19.399
G1 X7.138 Y19.194
G1 X7.138 Y19.190
G1 X7.122 Y18.980
G1 X7.107 Y18.770
G1 X7.091 Y18.560
G1 X7.076 Y18.351
G1 X7.062 Y18.141
G1 X7.047 Y17.931
G1 X7.033 Y17.722
G1 X7.019 Y17.512
G1 X7.005 Y17.302
G1 X6.992 Y17.092
G1 X6.979 Y16.883
G1 X6.966 Y16.673
G1 X6.953 Y16.463
G1 X6.941 Y16.254
G1 X6.929 Y16.044
G1 X6.928 Y16.043
G1 X6.917 Y15.834
G1 X6.905 Y15.624
G1 X6.893 Y15.415
G1 X6.882 Y15.205
G1 X6.871 Y14.995
G1 X6.860 Y14.785
G1 X6.849 Y14.576
G1 X6.839 Y14.366
G1 X6.829 Y14.156
G1 X6.819 Y13.947
G1 X6.809 Y13.737
G1 X6.799 Y13.527
G1 X6.790 Y13.317
G1 X6.781 Y13.108
G1 X6.772 Y12.898
G1 X6.763 Y12.688
G1 X6.754 Y12.479
G1 X6.746 Y12.269
G1 X6.737 Y12.059
G1 X6.729 Y11.849
G1 X6.721 Y11.640
G1 X6.719 Y11.577
G1 X6.713 Y11.430
G1 X6.706 Y11.220
G1 X6.698 Y11.010
G1 X6.691 Y10.801
G1 X6.684 Y10.591
G1 X6.677 Y10.381
G1 X6.670 Y10.172
G1 X6.664 Y9.962
G1 X6.657 Y9.752
G1 X6.651 Y9.542
G1 X6.645 Y9.333
G1 X6.639 Y9.123
G1 X6.633 Y8.913
G1 X6.628 Y8.704
G1 X6.622 Y8.494
G1 X6.617 Y8.284
G1 X6.612 Y8.074
G1 X6.607 Y7.865
G1 X6.602 Y7.655
G1 X6.597 Y7.445
G1 X6.592 Y7.235
G1 X6.588 Y7.026
G1 X6.583 Y6.816
G1 X6.579 Y6.606
G1 X6.575 Y6.397
G1 X6.571 Y6.187
G1 X6.568 Y5.977
G1 X6.564 Y5.767
G1 X6.561 Y5.558
G1 X6.557 Y5.348
G1 X6.554 Y5.138
G1 X6.551 Y4.928
G1 X6.548 Y4.719
G1 X6.545 Y4.509
G1 X6.543 Y4.299
G1 X6.540 Y4.090
G1 X6.538 Y3.880
G1 X6.535 Y3.670
G1 X6.533 Y3.460
G1 X6.531 Y3.251
G1 X6.529 Y3.041
G1 X6.527 Y2.831
G1 X6.526 Y2.622
G1 X6.524 Y2.412
G1 X6.523 Y2.202
G1 X6.522 Y1.992
G1 X6.520 Y1.783
G1 X6.519 Y1.573
G1 X6.519 Y1.363
G1 X6.518 Y1.153
G1 X6.517 Y0.944
G1 X6.517 Y0.734
G1 X6.516 Y0.524
G1 X6.516 Y0.315
G1 X6.516 Y0.105
G1 X6.516 Y-0.105
G1 X6.516 Y-0.315
G1 X6.516 Y-0.524
G1 X6.516 Y-0.734
G1 X6.517 Y-0.944
G1 X6.517 Y-1.153
G1 X6.518 Y-1.363
G1 X6.519 Y-1.573
G1 X6.520 Y-1.783
G1 X6.521 Y-1.992
G1 X6.522 Y-2.202
G1 X6.523 Y-2.412
G1 X6.524 Y-2.622
G1 X6.526 Y-2.831
G1 X6.528 Y-3.041
G1 X6.529 Y-3.251
G1 X6.531 Y-3.460
G1 X6.533 Y-3.670
G1 X6.536 Y-3.880
G1 X6.538 Y-4.090
G1 X6.540 Y-4.299
G1 X6.543 Y-4.509
G1 X6.546 Y-4.719
G1 X6.548 Y-4.928
G1 X6.551 Y-5.138
G1 X6.554 Y-5.348
G1 X6.558 Y-5.558
G1 X6.561 Y-5.767
G1 X6.565 Y-5.977
G1 X6.568 Y-6.187
G1 X6.572 Y-6.397
G1 X6.576 Y-6.606
G1 X6.580 Y-6.816
G1 X6.584 Y-7.026
G1 X6.589 Y-7.235
G1 X6.593 Y-7.445
G1 X6.598 Y-7.655
G1 X6.602 Y-7.865
G1 X6.607 Y-8.074
G1 X6.612 Y-8.284
G1 X6.618 Y-8.494
G1 X6.623 Y-8.704
G1 X6.629 Y-8.913
G1 X6.634 Y-9.123
G1 X6.640 Y-9.333
G1 X6.646 Y-9.542
G1 X6.652 Y-9.752
G1 X6.659 Y-9.962
G1 X6.665 Y-10.172
G1 X6.672 Y-10.381
G1 X6.678 Y-10.591
G1 X6.685 Y-10.801
G1 X6.693 Y-11.010
G1 X6.700 Y-11.220
G1 X6.707 Y-11.430
G1 X6.715 Y-11.640
G1 X6.719 Y-11.742
G1 X6.723 Y-11.849
G1 X6.731 Y-12.059
G1 X6.739 Y-12.269
G1 X6.747 Y-12.479
G1 X6.756 Y-12.688
G1 X6.765 Y-12.898
G1 X6.774 Y-13.108
G1 X6.783 Y-13.317
G1 X6.792 Y-13.527
G1 X6.802 Y-13.737
G1 X6.811 Y-13.947
G1 X6.821 Y-14.156
G1 X6.831 Y-14.366
G1 X6.842 Y-14.576
G1 X6.852 Y-14.785
G1 X6.863 Y-14.995
G1 X6.874 Y-15.205
G1 X6.885 Y-15.415
G1 X6.896 Y-15.624
G1 X6.908 Y-15.834
G1 X6.920 Y-16.044
G1 X6.928 Y-16.195
G1 X6.932 Y-16.254
G1 X6.944 Y-16.463
G1 X6.957 Y-16.673
G1 X6.970 Y-16.883
G1 X6.983 Y-17.092
G1 X6.996 Y-17.302
G1 X7.009 Y-17.512
G1 X7.023 Y-17.722
G1 X7.037 Y-17.931
G1 X7.052 Y-18.141
G1 X7.066 Y-18.351
G1 X7.081 Y-18.560
G1 X7.096 Y-18.770
G1 X7.111 Y-18.980
G1 X7.127 Y-19.190
G1 X7.138 Y-19.336
G1 X7.143 Y-19.399
G1 X7.159 Y-19.609
G1 X7.176 Y-19.819
G1 X7.193 Y-20.029
G1 X7.210 Y-20.238
G1 X7.228 Y-20.448
G1 X7.245 Y-20.658
G1 X7.264 Y-20.867
G1 X7.282 Y-21.077
G1 X7.301 Y-21.287
G1 X7.320 Y-21.497
G1 X7.340 Y-21.706
G1 X7.348 Y-21.795
G1 X7.359 Y-21.916
G1 X7.380 Y-22.126
G1 X7.400 Y-22.336
G1 X7.421 Y-22.545
G1 X7.443 Y-22.755
G1 X7.465 Y-22.965
G1 X7.487 Y-23.174
G1 X7.509 Y-23.384
G1 X7.533 Y-23.594
G1 X7.556 Y-23.804
G1 X7.558 Y-23.818
G1 X7.580 Y-24.013
G1 X7.604 Y-24.223
G1 X7.629 Y-24.433
G1 X7.655 Y-24.642
G1 X7.680 Y-24.852
G1 X7.707 Y-25.062
G1 X7.733 Y-25.272
G1 X7.761 Y-25.481
G1 X7.767 Y-25.533
G1 X7.788 Y-25.691
G1 X7.817 Y-25.901
G1 X7.846 Y-26.111
G1 X7.875 Y-26.320
G1 X7.905 Y-26.530
G1 X7.936 Y-26.740
G1 X7.967 Y-26.949
G1 X7.977 Y-27.016
G1 X7.999 Y-27.159
G1 X8.031 Y-27.369
G1 X8.065 Y-27.579
G1 X8.098 Y-27.788
G1 X8.133 Y-27.998
G1 X8.168 Y-28.208
G1 X8.187 Y-28.318
G1 X8.204 Y-28.417
G1 X8.241 Y-28.627
G1 X8.278 Y-28.837
G1 X8.316 Y-29.047
G1 X8.355 Y-29.256
G1 X8.395 Y-29.466
G1 X8.397 Y-29.474
G1 X8.436 Y-29.676
G1 X8.477 Y-29.886
G1 X8.520 Y-30.095
G1 X8.563 Y-30.305
G1 X8.606 Y-30.510
G1 X8.607 Y-30.515
G1 X8.653 Y-30.724
G1 X8.699 Y-30.934
G1 X8.746 Y-31.144
G1 X8.794 Y-31.354
G1 X8.816 Y-31.445
G1 X8.844 Y-31.563
G1 X8.895 Y-31.773
G1 X8.946 Y-31.983
G1 X8.999 Y-32.192
G1 X9.026 Y-32.295
G1 X9.053 Y-32.402
G1 X9.109 Y-32.612
G1 X9.166 Y-32.822
G1 X9.224 Y-33.031
G1 X9.235 Y-33.072
G1 X9.284 Y-33.241
G1 X9.345 Y-33.451
G1 X9.407 Y-33.661
G1 X9.445 Y-33.785
G1 X9.471 Y-33.870
G1 X9.537 Y-34.080
G1 X9.605 Y-34.290
G1 X9.655 Y-34.442
G1 X9.674 Y-34.499
G1 X9.745 Y-34.709
G1 X9.818 Y-34.919
G1 X9.865 Y-35.050
G1 X9.893 Y-35.129
G1 X9.970 Y-35.338
G1 X10.049 Y-35.548
G1 X10.074 Y-35.615
G1 X10.130 Y-35.758
G1 X10.214 Y-35.968
G1 X10.284 Y-36.140
G1 X10.299 Y-36.177
G1 X10.388 Y-36.387
G1 X10.479 Y-36.597
G1 X10.494 Y-36.631
G1 X10.573 Y-36.806
G1 X10.669 Y-37.016
G1 X10.704 Y-37.090
G1 X10.768 Y-37.226
G1 X10.871 Y-37.436
G1 X10.913 Y-37.520
G1 X10.977 Y-37.645
G1 X11.086 Y-37.855
G1 X11.123 Y-37.925
G1 X11.199 Y-38.065
G1 X11.315 Y-38.274
G1 X11.333 Y-38.306
G1 X11.435 Y-38.484
G1 X11.542 Y-38.665
G1 X11.560 Y-38.694
G1 X11.688 Y-38.904
G1 X11.752 Y-39.005
G1 X11.821 Y-39.113
G1 X11.959 Y-39.323
G1 X11.962 Y-39.327
G1 X12.103 Y-39.533
G1 X12.172 Y-39.631
G1 X12.251 Y-39.743
G1 X12.381 Y-39.921
G1 X12.405 Y-39.952
G1 X12.565 Y-40.162
G1 X12.591 Y-40.195
G1 X12.731 Y-40.372
G1 X12.801 Y-40.457
G1 X12.904 Y-40.581
G1 X13.010 Y-40.706
G1 X13.085 Y-40.791
G1 X13.220 Y-40.943
G1 X13.272 Y-41.001
G1 X13.430 Y-41.170
G1 X13.468 Y-41.211
G1 X13.640 Y-41.387
G1 X13.673 Y-41.420
G1 X13.849 Y-41.594
G1 X13.887 Y-41.630
G1 X14.059 Y-41.792
G1 X14.111 Y-41.840
G1 X14.269 Y-41.982
G1 X14.346 Y-42.049
G1 X14.479 Y-42.164
G1 X14.592 Y-42.259
G1 X14.688 Y-42.338
G1 X14.851 Y-42.469
G1 X14.898 Y-42.506
G1 X15.108 Y-42.667
G1 X15.124 Y-42.679
G1 X15.317 Y-42.821
G1 X15.411 Y-42.888
G1 X15.527 Y-42.970
G1 X15.714 Y-43.098
G1 X15.737 Y-43.113
G1 X15.947 Y-43.251
G1 X16.035 Y-43.308
G1 X16.156 Y-43.384
G1 X16.366 Y-43.512
G1 X16.375 Y-43.518
G1 X16.576 Y-43.635
G1 X16.737 Y-43.727
G1 X16.785 Y-43.754
G1 X16.995 Y-43.869
G1 X17.122 Y-43.937
G1 X17.205 Y-43.980
G1 X17.415 Y-44.087
G1 X17.534 Y-44.147
G1 X17.624 Y-44.191
G1 X17.834 Y-44.291
G1 X17.975 Y-44.356
G1 X18.044 Y-44.388
G1 X18.254 Y-44.481
G1 X18.450 Y-44.566
G1 X18.463 Y-44.572
G1 X18.673 Y-44.659
G1 X18.883 Y-44.744
G1 X18.964 Y-44.776
G1 X19.092 Y-44.826
G1 X19.302 Y-44.905
G1 X19.512 Y-44.982
G1 X19.521 Y-44.986
G1 X19.722 Y-45.057
G1 X19.931 Y-45.129
G1 X20.130 Y-45.195
G1 X20.141 Y-45.199
G1 X20.351 Y-45.266
G1 X20.560 Y-45.332
G1 X20.770 Y-45.396
G1 X20.801 Y-45.405
G1 X20.980 Y-45.457
G1 X21.190 Y-45.517
G1 X21.399 Y-45.575
G1 X21.546 Y-45.615
G1 X21.609 Y-45.631
G1 X21.819 Y-45.686
G1 X22.029 Y-45.739
G1 X22.238 Y-45.790
G1 X22.384 Y-45.824
G1 X22.448 Y-45.840
G1 X22.658 Y-45.888
G1 X22.867 Y-45.934
G1 X23.077 Y-45.979
G1 X23.287 Y-46.023
G1 X23.341 Y-46.034
G1 X23.497 Y-46.066
G1 X23.706 Y-46.107
G1 X23.916 Y-46.146
G1 X24.126 Y-46.185
G1 X24.336 Y-46.222
G1 X24.462 Y-46.244
G1 X24.545 Y-46.258
G1 X24.755 Y-46.293
G1 X24.965 Y-46.327
G1 X25.174 Y-46.359
G1 X25.384 Y-46.391
G1 X30.417 Y-42.469
G1 X30.627 Y-42.485
G1 X30.837 Y-42.498
G1 X31.047 Y-42.511
G1 X31.256 Y-42.521
G1 X31.466 Y-42.530
G1 X31.676 Y-42.538
G1 X31.886 Y-42.543
G1 X32.095 Y-42.547
G1 X32.305 Y-42.550
G1 X32.515 Y-42.551
G1 X32.724 Y-42.550
G1 X32.934 Y-42.547
G1 X33.144 Y-42.543
G1 X33.354 Y-42.537
G1 X33.563 Y-42.529
G1 X33.773 Y-42.519
G1 X33.983 Y-42.508
G1 X34.192 Y-42.495
G1 X34.402 Y-42.480
G1 X34.543 Y-42.469
G1 X34.612 Y-42.463
G1 X34.822 Y-42.445
G1 X35.031 Y-42.424
G1 X35.241 Y-42.401
G1 X35.451 Y-42.376
G1 X35.661 Y-42.350
G1 X35.870 Y-42.321
G1 X36.080 Y-42.290
G1 X36.276 Y-42.259
G1 X36.290 Y-42.257
G1 X36.499 Y-42.221
G1 X36.709 Y-42.184
G1 X36.919 Y-42.143
G1 X37.129 Y-42.101
G1 X37.338 Y-42.056
G1 X37.367 Y-42.049
G1 X37.548 Y-42.008
G1 X37.758 Y-41.958
G1 X37.968 Y-41.904
G1 X38.177 Y-41.848
G1 X38.208 Y-41.840
G1 X38.387 Y-41.789
G1 X38.597 Y-41.727
G1 X38.806 Y-41.662
G1 X38.904 Y-41.630
G1 X39.016 Y-41.593
G1 X39.226 Y-41.521
G1 X39.436 Y-41.445
G1 X39.503 Y-41.420
G1 X39.645 Y-41.366
G1 X39.855 Y-41.283
G1 X40.029 Y-41.211
G1 X40.065 Y-41.195
G1 X40.274 Y-41.104
G1 X40.484 Y-41.008
G1 X40.498 Y-41.001
G1 X40.694 Y-40.907
G1 X40.904 Y-40.801
G1 X40.923 Y-40.791
G1 X41.113 Y-40.690
G1 X41.310 Y-40.581
G1 X41.323 Y-40.574
G1 X41.533 Y-40.452
G1 X41.665 Y-40.372
G1 X41.743 Y-40.324
G1 X41.952 Y-40.190
G1 X41.994 Y-40.162
G1 X42.162 Y-40.049
G1 X42.300 Y-39.952
G1 X42.372 Y-39.901
G1 X42.581 Y-39.745
G1 X42.585 Y-39.743
G1 X42.791 Y-39.581
G1 X42.851 Y-39.533
G1 X43.001 Y-39.409
G1 X43.101 Y-39.323
G1 X43.211 Y-39.228
G1 X43.337 Y-39.113
G1 X43.420 Y-39.037
G1 X43.560 Y-38.904
G1 X43.630 Y-38.835
G1 X43.771 Y-38.694
G1 X43.840 Y-38.623
G1 X43.970 Y-38.484
G1 X44.049 Y-38.398
G1 X44.160 Y-38.274
G1 X44.259 Y-38.161
G1 X44.340 Y-38.065
G1 X44.469 Y-37.909
G1 X44.513 Y-37.855
G1 X44.677 Y-37.645
G1 X44.679 Y-37.643
G1 X44.833 Y-37.436
G1 X44.888 Y-37.360
G1 X44.983 Y-37.226
G1 X45.098 Y-37.060
G1 X45.127 Y-37.016
G1 X45.265 Y-36.806
G1 X45.308 Y-36.740
G1 X45.397 Y-36.597
G1 X45.518 Y-36.399
G1 X45.525 Y-36.387
G1 X45.647 Y-36.177
G1 X45.727 Y-36.035
G1 X45.764 Y-35.968
G1 X45.877 Y-35.758
G1 X45.937 Y-35.645
G1 X45.987 Y-35.548
G1 X46.092 Y-35.338
G1 X46.147 Y-35.227
G1 X46.193 Y-35.129
G1 X46.292 Y-34.919
G1 X46.356 Y-34.777
G1 X46.387 Y-34.709
G1 X46.478 Y-34.499
G1 X46.566 Y-34.292
G1 X46.567 Y-34.290
G1 X46.653 Y-34.080
G1 X46.736 Y-33.870
G1 X46.776 Y-33.767
G1 X46.816 Y-33.661
G1 X46.894 Y-33.451
G1 X46.970 Y-33.241
G1 X46.986 Y-33.199
G1 X47.044 Y-33.031
G1 X47.115 Y-32.822
G1 X47.185 Y-32.612
G1 X47.195 Y-32.579
G1 X47.252 Y-32.402
G1 X47.317 Y-32.192
G1 X47.381 Y-31.983
G1 X47.405 Y-31.901
G1 X47.442 Y-31.773
G1 X47.502 Y-31.563
G1 X47.561 Y-31.354
G1 X47.615 Y-31.157
G1 X47.618 Y-31.144
G1 X47.673 Y-30.934
G1 X47.727 Y-30.724
G1 X47.780 Y-30.515
G1 X47.824 Y-30.334
G1 X47.832 Y-30.305
G1 X47.881 Y-30.095
G1 X47.930 Y-29.886
G1 X47.977 Y-29.676
G1 X48.024 Y-29.466
G1 X48.034 Y-29.419
G1 X48.069 Y-29.256
G1 X48.113 Y-29.047
G1 X48.156 Y-28.837
G1 X48.198 Y-28.627
G1 X48.239 Y-28.417
G1 X48.244 Y-28.395
G1 X48.279 Y-28.208
G1 X48.318 Y-27.998
G1 X48.357 Y-27.788
G1 X48.394 Y-27.579
G1 X48.431 Y-27.369
G1 X48.454 Y-27.235
G1 X48.466 Y-27.159
G1 X48.501 Y-26.949
G1 X48.535 Y-26.740
G1 X48.568 Y-26.530
G1 X48.601 Y-26.320
G1 X48.633 Y-26.111
G1 X48.663 Y-25.909
G1 X48.665 Y-25.901
G1 X48.695 Y-25.691
G1 X48.725 Y-25.481
G1 X48.754 Y-25.272
G1 X48.782 Y-25.062
G1 X48.810 Y-24.852
G1 X48.838 Y-24.642
G1 X48.865 Y-24.433
G1 X48.873 Y-24.369
G1 X48.891 Y-24.223
G1 X48.917 Y-24.013
G1 X48.942 Y-23.804
G1 X48.966 Y-23.594
G1 X48.991 Y-23.384
G1 X49.014 Y-23.174
G1 X49.038 Y-22.965
G1 X49.060 Y-22.755
G1 X49.083 Y-22.545
G1 X49.083 Y-22.544
G1 X49.104 Y-22.336
G1 X49.126 Y-22.126
G1 X49.146 Y-21.916
G1 X49.167 Y-21.706
G1 X49.187 Y-21.497
G1 X49.207 Y-21.287
G1 X49.226 Y-21.077
G1 X49.245 Y-20.867
G1 X49.263 Y-20.658
G1 X49.282 Y-20.448
G1 X49.293 Y-20.320
G1 X49.299 Y-20.238
G1 X49.317 Y-20.029
G1 X49.334 Y-19.819
G1 X49.350 Y-19.609
G1 X49.367 Y-19.399
G1 X49.383 Y-19.190
G1 X49.398 Y-18.980
G1 X49.414 Y-18.770
G1 X49.429 Y-18.560
G1 X49.444 Y-18.351
G1 X49.458 Y-18.141
G1 X49.473 Y-17.931
G1 X49.487 Y-17.722
G1 X49.500 Y-17.512
G1 X49.502 Y-17.480
G1 X49.514 Y-17.302
G1 X49.527 Y-17.092
G1 X49.539 Y-16.883
G1 X49.552 Y-16.673
G1 X49.564 Y-16.463
G1 X49.576 Y-16.254
G1 X49.588 Y-16.044
G1 X49.599 Y-15.834
G1 X49.611 Y-15.624
G1 X49.622 Y-15.415
G1 X49.633 Y-15.205
G1 X49.643 Y-14.995
G1 X49.654 Y-14.785
G1 X49.664 Y-14.576
G1 X49.674 Y-14.366
G1 X49.684 Y-14.156
G1 X49.693 Y-13.947
G1 X49.702 Y-13.737
G1 X49.712 Y-13.527
G1 X49.712 Y-13.518
G1 X49.720 Y-13.317
G1 X49.729 Y-13.108
G1 X49.738 Y-12.898
G1 X49.746 Y-12.688
G1 X49.754 Y-12.479
G1 X49.762 Y-12.269
G1 X49.769 Y-12.059
G1 X49.777 Y-11.849
G1 X49.784 Y-11.640
G1 X49.792 Y-11.430
G1 X49.799 Y-11.220
G1 X49.805 Y-11.010
G1 X49.812 Y-10.801
G1 X49.819 Y-10.591
G1 X49.825 Y-10.381
G1 X49.831 Y-10.172
G1 X49.837 Y-9.962
G1 X49.843 Y-9.752
G1 X49.849 Y-9.542
G1 X49.854 Y-9.333
G1 X49.860 Y-9.123
G1 X49.865 Y-8.913
G1 X49.870 Y-8.704
G1 X49.875 Y-8.494
G1 X49.880 Y-8.284
G1 X49.884 Y-8.074
G1 X49.889 Y-7.865
G1 X49.893 Y-7.655
G1 X49.898 Y-7.445
G1 X49.902 Y-7.235
G1 X49.906 Y-7.026
G1 X49.910 Y-6.816
G1 X49.913 Y-6.606
G1 X49.917 Y-6.397
G1 X49.920 Y-6.187
G1 X49.922 Y-6.090
G1 X49.923 Y-5.977
G1 X49.927 Y-5.767
G1 X49.930 Y-5.558
G1 X49.932 Y-5.348
G1 X49.935 Y-5.138
G1 X49.938 Y-4.928
G1 X49.940 Y-4.719
G1 X49.943 Y-4.509
G1 X49.945 Y-4.299
G1 X49.947 Y-4.090
G1 X49.949 Y-3.880
G1 X49.951 Y-3.670
G1 X49.953 Y-3.460
G1 X49.955 Y-3.251
G1 X49.956 Y-3.041
G1 X49.958 Y-2.831
G1 X49.959 Y-2.622
G1 X49.960 Y-2.412
G1 X49.961 Y-2.202
G1 X49.962 Y-1.992
G1 X49.963 Y-1.783
G1 X49.964 Y-1.573
G1 X49.965 Y-1.363
G1 X49.965 Y-1.153
G1 X49.966 Y-0.944
G1 X49.966 Y-0.734
G1 X49.967 Y-0.524
G1 X49.967 Y-0.315
G1 X49.967 Y-0.105
G1 X49.967 Y0.105
G1 X49.967 Y0.315
G1 X49.966 Y0.524
G1 X49.966 Y0.734
G1 X49.966 Y0.944
G1 X49.965 Y1.153
G1 X49.965 Y1.363
G1 X49.964 Y1.573
G1 X49.963 Y1.783
G1 X49.962 Y1.992
G1 X49.961 Y2.202
G1 X49.960 Y2.412
G1 X49.959 Y2.622
G1 X49.957 Y2.831
G1 X49.956 Y3.041
G1 X49.954 Y3.251
G1 X49.952 Y3.460
G1 X49.950 Y3.670
G1 X49.949 Y3.880
G1 X49.946 Y4.090
G1 X49.944 Y4.299
G1 X49.942 Y4.509
G1 X49.940 Y4.719
G1 X49.937 Y4.928
G1 X49.934 Y5.138
G1 X49.932 Y5.348
G1 X49.929 Y5.558
G1 X49.926 Y5.767
G1 X49.922 Y5.977
G1 X49.922 Y6.022
G1 X49.919 Y6.187
G1 X49.916 Y6.397
G1 X49.912 Y6.606
G1 X49.908 Y6.816
G1 X49.904 Y7.026
G1 X49.900 Y7.235
G1 X49.896 Y7.445
G1 X49.892 Y7.655
G1 X49.888 Y7.865
G1 X49.883 Y8.074
G1 X49.878 Y8.284
G1 X49.873 Y8.494
G1 X49.868 Y8.704
G1 X49.863 Y8.913
G1 X49.858 Y9.123
G1 X49.853 Y9.333
G1 X49.847 Y9.542
G1 X49.841 Y9.752
G1 X49.835 Y9.962
G1 X49.829 Y10.172
G1 X49.823 Y10.381
G1 X49.817 Y10.591
G1 X49.810 Y10.801
G1 X49.803 Y11.010
G1 X49.797 Y11.220
G1 X49.789 Y11.430
G1 X49.782 Y11.640
G1 X49.775 Y11.849
G1 X49.767 Y12.059
G1 X49.760 Y12.269
G1 X49.752 Y12.479
G1 X49.743 Y12.688
G1 X49.735 Y12.898
G1 X49.727 Y13.108
G1 X49.718 Y13.317
G1 X49.712 Y13.460
G1 X49.709 Y13.527
G1 X49.700 Y13.737
G1 X49.691 Y13.947
G1 X49.681 Y14.156
G1 X49.671 Y14.366
G1 X49.661 Y14.576
G1 X49.651 Y14.785
G1 X49.640 Y14.995
G1 X49.630 Y15.205
G1 X49.619 Y15.415
G1 X49.608 Y15.624
G1 X49.596 Y15.834
G1 X49.585 Y16.044
G1 X49.573 Y16.254
G1 X49.561 Y16.463
G1 X49.549 Y16.673
G1 X49.536 Y16.883
G1 X49.523 Y17.092
G1 X49.510 Y17.302
G1 X49.502 Y17.428
G1 X49.497 Y17.512
G1 X49.483 Y17.722
G1 X49.469 Y17.931
G1 X49.455 Y18.141
G1 X49.440 Y18.351
G1 X49.425 Y18.560
G1 X49.410 Y18.770
G1 X49.395 Y18.980
G1 X49.379 Y19.190
G1 X49.363 Y19.399
G1 X49.346 Y19.609
G1 X49.330 Y19.819
G1 X49.313 Y20.029
G1 X49.295 Y20.238
G1 X49.293 Y20.271
G1 X49.277 Y20.448
G1 X49.259 Y20.658
G1 X49.240 Y20.867
G1 X49.221 Y21.077
G1 X49.202 Y21.287
G1 X49.182 Y21.497
G1 X49.162 Y21.706
G1 X49.142 Y21.916
G1 X49.121 Y22.126
G1 X49.100 Y22.336
G1 X49.083 Y22.498
G1 X49.078 Y22.545
G1 X49.055 Y22.755
G1 X49.033 Y22.965
G1 X49.009 Y23.174
G1 X48.986 Y23.384
G1 X48.961 Y23.594
G1 X48.937 Y23.804
G1 X48.911 Y24.013
G1 X48.886 Y24.223
G1 X48.873 Y24.325
G1 X48.859 Y24.433
G1 X48.832 Y24.642
G1 X48.805 Y24.852
G1 X48.777 Y25.062
G1 X48.748 Y25.272
G1 X48.719 Y25.481
G1 X48.689 Y25.691
G1 X48.663 Y25.868
G1 X48.658 Y25.901
G1 X48.627 Y26.111
G1 X48.595 Y26.320
G1 X48.562 Y26.530
G1 X48.529 Y26.740
G1 X48.495 Y26.949
G1 X48.460 Y27.159
G1 X48.454 Y27.196
G1 X48.424 Y27.369
G1 X48.387 Y27.579
G1 X48.350 Y27.788
G1 X48.311 Y27.998
G1 X48.272 Y28.208
G1 X48.244 Y28.357
G1 X48.232 Y28.417
G1 X48.191 Y28.627
G1 X48.148 Y28.837
G1 X48.105 Y29.047
G1 X48.061 Y29.256
G1 X48.034 Y29.383
G1 X48.016 Y29.466
G1 X47.969 Y29.676
G1 X47.922 Y29.886
G1 X47.873 Y30.095
G1 X47.824 Y30.299
G1 X47.823 Y30.305
G1 X47.771 Y30.515
G1 X47.718 Y30.724
G1 X47.664 Y30.934
G1 X47.615 Y31.123
G1 X47.609 Y31.144
G1 X47.552 Y31.354
G1 X47.493 Y31.563
G1 X47.433 Y31.773
G1 X47.405 Y31.868
G1 X47.371 Y31.983
G1 X47.307 Y32.192
G1 X47.241 Y32.402
G1 X47.195 Y32.547
G1 X47.174 Y32.612
G1 X47.104 Y32.822
G1 X47.033 Y33.031
G1 X46.986 Y33.167
G1 X46.959 Y33.241
G1 X46.883 Y33.451
G1 X46.805 Y33.661
G1 X46.776 Y33.737
G1 X46.724 Y33.870
G1 X46.640 Y34.080
G1 X46.566 Y34.262
G1 X46.554 Y34.290
G1 X46.465 Y34.499
G1 X46.373 Y34.709
G1 X46.356 Y34.747
G1 X46.278 Y34.919
G1 X46.180 Y35.129
G1 X46.147 Y35.198
G1 X46.078 Y35.338
G1 X45.972 Y35.548
G1 X45.937 Y35.616
G1 X45.862 Y35.758
G1 X45.749 Y35.968
G1 X45.727 Y36.007
G1 X45.631 Y36.177
G1 X45.518 Y36.372
G1 X45.508 Y36.387
G1 X45.380 Y36.597
G1 X45.308 Y36.713
G1 X45.248 Y36.806
G1 X45.110 Y37.016
G1 X45.098 Y37.033
G1 X44.965 Y37.226
G1 X44.888 Y37.334
G1 X44.814 Y37.436
G1 X44.679 Y37.617
G1 X44.657 Y37.645
G1 X44.492 Y37.855
G1 X44.469 Y37.884
G1 X44.319 Y38.065
G1 X44.259 Y38.135
G1 X44.138 Y38.274
G1 X44.049 Y38.373
G1 X43.947 Y38.484
G1 X43.840 Y38.598
G1 X43.746 Y38.694
G1 X43.630 Y38.811
G1 X43.534 Y38.904
G1 X43.420 Y39.012
G1 X43.311 Y39.113
G1 X43.211 Y39.204
G1 X43.074 Y39.323
G1 X43.001 Y39.385
G1 X42.822 Y39.533
G1 X42.791 Y39.558
G1 X42.581 Y39.722
G1 X42.554 Y39.743
G1 X42.372 Y39.877
G1 X42.267 Y39.952
G1 X42.162 Y40.026
G1 X41.960 Y40.162
G1 X41.952 Y40.167
G1 X41.743 Y40.301
G1 X41.628 Y40.372
G1 X41.533 Y40.429
G1 X41.323 Y40.551
G1 X41.269 Y40.581
G1 X41.113 Y40.667
G1 X40.904 Y40.778
G1 X40.879 Y40.791
G1 X40.694 Y40.884
G1 X40.484 Y40.985
G1 X40.450 Y41.001
G1 X40.274 Y41.081
G1 X40.065 Y41.173
G1 X39.975 Y41.211
G1 X39.855 Y41.260
G1 X39.645 Y41.344
G1 X39.443 Y41.420
G1 X39.436 Y41.423
G1 X39.226 Y41.499
G1 X39.016 Y41.571
G1 X38.836 Y41.630
G1 X38.806 Y41.640
G1 X38.597 Y41.705
G1 X38.387 Y41.767
G1 X38.177 Y41.826
G1 X38.127 Y41.840
G1 X37.968 Y41.882
G1 X37.758 Y41.935
G1 X37.548 Y41.986
G1 X37.338 Y42.034
G1 X37.265 Y42.049
G1 X37.129 Y42.079
G1 X36.919 Y42.121
G1 X36.709 Y42.161
G1 X36.499 Y42.199
G1 X36.290 Y42.234
G1 X36.133 Y42.259
G1 X36.080 Y42.268
G1 X35.870 Y42.298
G1 X35.661 Y42.327
G1 X35.451 Y42.354
G1 X35.241 Y42.378
G1 X35.031 Y42.401
G1 X34.822 Y42.421
G1 X34.612 Y42.440
G1 X34.402 Y42.457
G1 X34.234 Y42.469
G1 X34.192 Y42.472
G1 X33.983 Y42.485
G1 X33.773 Y42.496
G1 X33.563 Y42.505
G1 X33.354 Y42.513
G1 X33.144 Y42.519
G1 X32.934 Y42.523
G1 X32.724 Y42.526
G1 X32.515 Y42.526
G1 X32.305 Y42.525
G1 X32.095 Y42.523
G1 X31.886 Y42.519
G1 X31.676 Y42.513
G1 X31.466 Y42.505
G1 X31.256 Y42.496
G1 X31.047 Y42.485
G1 X30.837 Y42.473
G1 X30.776 Y42.469
G1 X30.627 Y42.459
G1 X30.417 Y42.443
G1 X30.208 Y42.426
G1 X29.998 Y42.407
G1 X29.788 Y42.386
G1 X29.579 Y42.364
G1 X29.369 Y42.340
G1 X29.159 Y42.315
G1 X28.949 Y42.287
G1 X28.745 Y42.259
G1 X28.740 Y42.258
G1 X28.530 Y42.228
G1 X28.320 Y42.195
G1 X28.111 Y42.161
G1 X27.901 Y42.125
G1 X27.691 Y42.088
G1 X27.488 Y42.049
G1 X27.481 Y42.048
G1 X27.272 Y42.007
G1 X27.062 Y41.964
G1 X26.852 Y41.919
G1 X26.642 Y41.872
G1 X26.505 Y41.840
G1 X26.433 Y41.823
G1 X26.223 Y41.772
G1 X26.013 Y41.719
G1 X25.804 Y41.664
G1 X25.679 Y41.630
G1 X25.594 Y41.607
G1 X25.384 Y41.547
G1 X25.174 Y41.486
G1 X24.965 Y41.422
G1 X24.958 Y41.420
G1 X24.755 Y41.356
G1 X24.545 Y41.288
G1 X24.336 Y41.217
G1 X24.316 Y41.211
G1 X24.126 Y41.144
G1 X23.916 Y41.068
G1 X23.735 Y41.001
G1 X23.706 Y40.990
G1 X23.497 Y40.909
G1 X23.287 Y40.825
G1 X23.204 Y40.791
G1 X23.077 Y40.738
G1 X22.867 Y40.649
G1 X22.714 Y40.581
G1 X22.658 Y40.556
G1 X22.448 Y40.461
G1 X22.259 Y40.372
G1 X22.238 Y40.362
G1 X22.029 Y40.260
G1 X21.834 Y40.162
G1 X21.819 Y40.154
G1 X21.609 Y40.045
G1 X21.436 Y39.952
G1 X21.399 Y39.932
G1 X21.190 Y39.816
G1 X21.062 Y39.743
G1 X20.980 Y39.695
G1 X20.770 Y39.571
G1 X20.708 Y39.533
G1 X20.560 Y39.442
G1 X20.373 Y39.323
G1 X20.351 Y39.309
G1 X20.141 Y39.171
G1 X20.055 Y39.113
G1 X19.931 Y39.029
G1 X19.753 Y38.904
G1 X19.722 Y38.881
G1 X19.512 Y38.729
G1 X19.465 Y38.694
G1 X19.302 Y38.571
G1 X19.190 Y38.484
G1 X19.092 Y38.407
G1 X18.927 Y38.274
G1 X18.883 Y38.238
G1 X18.675 Y38.065
G1 X18.673 Y38.063
G1 X18.463 Y37.881
G1 X18.434 Y37.855
G1 X18.254 Y37.692
G1 X18.203 Y37.645
G1 X18.044 Y37.496
G1 X17.980 Y37.436
G1 X17.834 Y37.293
G1 X17.766 Y37.226
G1 X17.624 Y37.082
G1 X17.560 Y37.016
G1 X17.415 Y36.863
G1 X17.362 Y36.806
G1 X17.205 Y36.635
G1 X17.170 Y36.597
G1 X16.995 Y36.398
G1 X16.985 Y36.387
G1 X16.807 Y36.177
G1 X16.785 Y36.152
G1 X16.634 Y35.968
G1 X16.576 Y35.895
G1 X16.467 Y35.758
G1 X16.366 Y35.627
G1 X16.306 Y35.548
G1 X16.156 Y35.348
G1 X16.149 Y35.338
G1 X15.997 Y35.129
G1 X15.947 Y35.057
G1 X15.850 Y34.919
G1 X15.737 Y34.753
G1 X15.708 Y34.709
G1 X15.569 Y34.499
G1 X15.527 Y34.434
G1 X15.435 Y34.290
G1 X15.317 Y34.102
G1 X15.304 Y34.080
G1 X15.177 Y33.870
G1 X15.108 Y33.753
G1 X15.054 Y33.661
G1 X14.934 Y33.451
G1 X14.898 Y33.387
G1 X14.817 Y33.241
G1 X14.703 Y33.031
G1 X14.688 Y33.003
G1 X14.593 Y32.822
G1 X14.485 Y32.612
G1 X14.479 Y32.600
G1 X14.380 Y32.402
G1 X14.277 Y32.192
G1 X14.269 Y32.175
G1 X14.178 Y31.983
G1 X14.080 Y31.773
G1 X14.059 Y31.727
G1 X13.985 Y31.563
G1 X13.893 Y31.354
G1 X13.849 Y31.254
G1 X13.802 Y31.144
G1 X13.714 Y30.934
G1 X13.640 Y30.754
G1 X13.628 Y30.724
G1 X13.544 Y30.515
G1 X13.461 Y30.305
G1 X13.430 Y30.223
G1 X13.381 Y30.095
G1 X13.303 Y29.886
G1 X13.226 Y29.676
G1 X13.220 Y29.661
G1 X13.151 Y29.466
G1 X13.077 Y29.256
G1 X13.010 Y29.061
G1 X13.005 Y29.047
G1 X12.935 Y28.837
G1 X12.867 Y28.627
G1 X12.801 Y28.422
G1 X12.799 Y28.417
G1 X12.734 Y28.208
G1 X12.669 Y27.998
G1 X12.606 Y27.788
G1 X12.591 Y27.738
G1 X12.544 Y27.579
G1 X12.484 Y27.369
G1 X12.425 Y27.159
G1 X12.381 Y27.003
G1 X12.367 Y26.949
G1 X12.310 Y26.740
G1 X12.254 Y26.530
G1 X12.200 Y26.320
G1 X12.172 Y26.211
G1 X12.146 Y26.111
G1 X12.094 Y25.901
G1 X12.042 Y25.691
G1 X11.992 Y25.481
G1 X11.962 Y25.354
G1 X11.943 Y25.272
G1 X11.894 Y25.062
G1 X11.847 Y24.852
G1 X11.800 Y24.642
G1 X11.755 Y24.433
G1 X11.752 Y24.421
G1 X11.710 Y24.223
G1 X11.666 Y24.013
G1 X11.623 Y23.804
G1 X11.581 Y23.594
G1 X11.542 Y23.401
G1 X11.539 Y23.384
G1 X11.499 Y23.174
G1 X11.459 Y22.965
G1 X11.420 Y22.755
G1 X11.381 Y22.545
G1 X11.343 Y22.336
G1 X11.333 Y22.276
G1 X11.306 Y22.126
G1 X11.270 Y21.916
G1 X11.234 Y21.706
G1 X11.199 Y21.497
G1 X11.165 Y21.287
G1 X11.131 Y21.077
G1 X11.123 Y21.024
G1 X11.098 Y20.867
G1 X11.066 Y20.658
G1 X11.034 Y20.448
G1 X11.003 Y20.238
G1 X10.972 Y20.029
G1 X10.942 Y19.819
G1 X10.913 Y19.615
G1 X10.912 Y19.609
G1 X10.883 Y19.399
G1 X10.855 Y19.190
G1 X10.827 Y18.980
G1 X10.800 Y18.770
G1 X10.773 Y18.560
G1 X10.746 Y18.351
G1 X10.720 Y18.141
G1 X10.704 Y18.002
G1 X10.695 Y17.931
G1 X10.670 Y17.722
G1 X10.646 Y17.512
G1 X10.622 Y17.302
G1 X10.598 Y17.092
G1 X10.575 Y16.883
G1 X10.552 Y16.673
G1 X10.530 Y16.463
G1 X10.508 Y16.254
G1 X10.494 Y16.116
G1 X10.486 Y16.044
G1 X10.465 Y15.834
G1 X10.445 Y15.624
G1 X10.425 Y15.415
G1 X10.405 Y15.205
G1 X10.385 Y14.995
G1 X10.366 Y14.785
G1 X10.348 Y14.576
G1 X10.329 Y14.366
G1 X10.311 Y14.156
G1 X10.294 Y13.947
G1 X10.284 Y13.827
G1 X10.277 Y13.737
G1 X10.260 Y13.527
G1 X10.243 Y13.317
G1 X10.227 Y13.108
G1 X10.211 Y12.898
G1 X10.196 Y12.688
G1 X10.181 Y12.479
G1 X10.166 Y12.269
G1 X10.151 Y12.059
G1 X10.137 Y11.849
G1 X10.123 Y11.640
G1 X10.110 Y11.430
G1 X10.097 Y11.220
G1 X10.084 Y11.010
G1 X10.074 Y10.858
G1 X10.071 Y10.801
G1 X10.059 Y10.591
G1 X10.047 Y10.381
G1 X10.035 Y10.172
G1 X10.023 Y9.962
G1 X10.012 Y9.752
G1 X10.001 Y9.542
G1 X9.991 Y9.333
G1 X9.980 Y9.123
G1 X9.970 Y8.913
G1 X9.960 Y8.704
G1 X9.951 Y8.494
G1 X9.941 Y8.284
G1 X9.932 Y8.074
G1 X9.924 Y7.865
G1 X9.915 Y7.655
G1 X9.907 Y7.445
G1 X9.899 Y7.235
G1 X9.891 Y7.026
G1 X9.884 Y6.816
G1 X9.876 Y6.606
G1 X9.869 Y6.397
G1 X9.865 Y6.245
G1 X9.863 Y6.187
G1 X9.856 Y5.977
G1 X9.850 Y5.767
G1 X9.844 Y5.558
G1 X9.838 Y5.348
G1 X9.833 Y5.138
G1 X9.827 Y4.928
G1 X9.822 Y4.719
G1 X9.817 Y4.509
G1 X9.813 Y4.299
G1 X9.808 Y4.090
G1 X9.804 Y3.880
G1 X9.800 Y3.670
G1 X9.797 Y3.460
G1 X9.793 Y3.251
G1 X9.790 Y3.041
G1 X9.787 Y2.831
G1 X9.784 Y2.622
G1 X9.781 Y2.412
G1 X9.779 Y2.202
G1 X9.777 Y1.992
G1 X9.775 Y1.783
G1 X9.773 Y1.573
G1 X9.771 Y1.363
G1 X9.770 Y1.153
G1 X9.769 Y0.944
G1 X9.768 Y0.734
G1 X9.767 Y0.524
G1 X9.767 Y0.315
G1 X9.767 Y0.105
G1 X9.766 Y-0.105
G1 X9.767 Y-0.315
G1 X9.767 Y-0.524
G1 X9.767 Y-0.734
G1 X9.768 Y-0.944
G1 X9.769 Y-1.153
G1 X9.770 Y-1.363
G1 X9.772 Y-1.573
G1 X9.773 Y-1.783
G1 X9.775 Y-1.992
G1 X9.777 Y-2.202
G1 X9.779 Y-2.412
G1 X9.782 Y-2.622
G1 X9.784 Y-2.831
G1 X9.787 Y-3.041
G1 X9.790 Y-3.251
G1 X9.794 Y-3.460
G1 X9.797 Y-3.670
G1 X9.801 Y-3.880
G1 X9.805 Y-4.090
G1 X9.809 Y-4.299
G1 X9.814 Y-4.509
G1 X9.818 Y-4.719
G1 X9.823 Y-4.928
G1 X9.828 Y-5.138
G1 X9.834 Y-5.348
G1 X9.839 Y-5.558
G1 X9.845 Y-5.767
G1 X9.851 Y-5.977
G1 X9.858 Y-6.187
G1 X9.864 Y-6.397
G1 X9.865 Y-6.412
G1 X9.871 Y-6.606
G1 X9.878 Y-6.816
G1 X9.885 Y-7.026
G1 X9.893 Y-7.235
G1 X9.901 Y-7.445
G1 X9.909 Y-7.655
G1 X9.917 Y-7.865
G1 X9.926 Y-8.074
G1 X9.935 Y-8.284
G1 X9.944 Y-8.494
G1 X9.953 Y-8.704
G1 X9.963 Y-8.913
G1 X9.973 Y-9.123
G1 X9.983 Y-9.333
G1 X9.993 Y-9.542
G1 X10.004 Y-9.752
G1 X10.015 Y-9.962
G1 X10.026 Y-10.172
G1 X10.038 Y-10.381
G1 X10.050 Y-10.591
G1 X10.062 Y-10.801
G1 X10.074 Y-11.010
G1 X10.074 Y-11.014
G1 X10.087 Y-11.220
G1 X10.100 Y-11.430
G1 X10.113 Y-11.640
G1 X10.127 Y-11.849
G1 X10.141 Y-12.059
G1 X10.155 Y-12.269
G1 X10.170 Y-12.479
G1 X10.185 Y-12.688
G1 X10.200 Y-12.898
G1 X10.216 Y-13.108
G1 X10.232 Y-13.317
G1 X10.248 Y-13.527
G1 X10.265 Y-13.737
G1 X10.282 Y-13.947
G1 X10.284 Y-13.974
G1 X10.299 Y-14.156
G1 X10.317 Y-14.366
G1 X10.335 Y-14.576
G1 X10.354 Y-14.785
G1 X10.372 Y-14.995
G1 X10.392 Y-15.205
G1 X10.411 Y-15.415
G1 X10.431 Y-15.624
G1 X10.452 Y-15.834
G1 X10.472 Y-16.044
G1 X10.494 Y-16.254
G1 X10.494 Y-16.256
G1 X10.515 Y-16.463
G1 X10.537 Y-16.673
G1 X10.560 Y-16.883
G1 X10.583 Y-17.092
G1 X10.606 Y-17.302
G1 X10.630 Y-17.512
G1 X10.654 Y-17.722
G1 X10.679 Y-17.931
G1 X10.704 Y-18.137
G1 X10.704 Y-18.141
G1 X10.730 Y-18.351
G1 X10.756 Y-18.560
G1 X10.783 Y-18.770
G1 X10.810 Y-18.980
G1 X10.838 Y-19.190
G1 X10.866 Y-19.399
G1 X10.895 Y-19.609
G1 X10.913 Y-19.743
G1 X10.924 Y-19.819
G1 X10.954 Y-20.029
G1 X10.984 Y-20.238
G1 X11.015 Y-20.448
G1 X11.047 Y-20.658
G1 X11.079 Y-20.867
G1 X11.112 Y-21.077
G1 X11.123 Y-21.147
G1 X11.145 Y-21.287
G1 X11.179 Y-21.497
G1 X11.214 Y-21.706
G1 X11.250 Y-21.916
G1 X11.286 Y-22.126
G1 X11.322 Y-22.336
G1 X11.333 Y-22.394
G1 X11.360 Y-22.545
G1 X11.398 Y-22.755
G1 X11.437 Y-22.965
G1 X11.476 Y-23.174
G1 X11.517 Y-23.384
G1 X11.542 Y-23.515
G1 X11.558 Y-23.594
G1 X11.600 Y-23.804
G1 X11.643 Y-24.013
G1 X11.686 Y-24.223
G1 X11.731 Y-24.433
G1 X11.752 Y-24.532
G1 X11.776 Y-24.642
G1 X11.822 Y-24.852
G1 X11.870 Y-25.062
G1 X11.918 Y-25.272
G1 X11.962 Y-25.461
G1 X11.967 Y-25.481
G1 X12.017 Y-25.691
G1 X12.068 Y-25.901
G1 X12.120 Y-26.111
G1 X12.172 Y-26.315
G1 X12.173 Y-26.320
G1 X12.227 Y-26.530
G1 X12.283 Y-26.740
G1 X12.339 Y-26.949
G1 X12.381 Y-27.103
G1 X12.397 Y-27.159
G1 X12.456 Y-27.369
G1 X12.516 Y-27.579
G1 X12.577 Y-27.788
G1 X12.591 Y-27.835
G1 X12.640 Y-27.998
G1 X12.704 Y-28.208
G1 X12.769 Y-28.417
G1 X12.801 Y-28.516
G1 X12.836 Y-28.627
G1 X12.905 Y-28.837
G1 X12.974 Y-29.047
G1 X13.010 Y-29.153
G1 X13.046 Y-29.256
G1 X13.119 Y-29.466
G1 X13.193 Y-29.676
G1 X13.220 Y-29.750
G1 X13.270 Y-29.886
G1 X13.348 Y-30.095
G1 X13.428 Y-30.305
G1 X13.430 Y-30.311
G1 X13.510 Y-30.515
G1 X13.593 Y-30.724
G1 X13.640 Y-30.838
G1 X13.679 Y-30.934
G1 X13.767 Y-31.144
G1 X13.849 Y-31.336
G1 X13.857 Y-31.354
G1 X13.949 Y-31.563
G1 X14.044 Y-31.773
G1 X14.059 Y-31.807
G1 X14.140 Y-31.983
G1 X14.240 Y-32.192
G1 X14.269 Y-32.253
G1 X14.342 Y-32.402
G1 X14.446 Y-32.612
G1 X14.479 Y-32.676
G1 X14.553 Y-32.822
G1 X14.664 Y-33.031
G1 X14.688 Y-33.078
G1 X14.777 Y-33.241
G1 X14.893 Y-33.451
G1 X14.898 Y-33.460
G1 X15.012 Y-33.661
G1 X15.108 Y-33.824
G1 X15.135 Y-33.870
G1 X15.261 Y-34.080
G1 X15.317 Y-34.171
G1 X15.391 Y-34.290
G1 X15.525 Y-34.499
G1 X15.527 Y-34.503
G1 X15.663 Y-34.709
G1 X15.737 Y-34.819
G1 X15.805 Y-34.919
G1 X15.947 Y-35.122
G1 X15.951 Y-35.129
G1 X16.102 Y-35.338
G1 X16.156 Y-35.412
G1 X16.258 Y-35.548
G1 X16.366 Y-35.690
G1 X16.419 Y-35.758
G1 X16.576 Y-35.956
G1 X16.585 Y-35.968
G1 X16.757 Y-36.177
G1 X16.785 Y-36.212
G1 X16.935 Y-36.387
G1 X16.995 Y-36.457
G1 X17.119 Y-36.597
G1 X17.205 Y-36.693
G1 X17.309 Y-36.806
G1 X17.415 Y-36.919
G1 X17.507 Y-37.016
G1 X17.624 Y-37.137
G1 X17.712 Y-37.226
G1 X17.834 Y-37.347
G1 X17.925 Y-37.436
G1 X18.044 Y-37.550
G1 X18.146 Y-37.645
G1 X18.254 Y-37.744
G1 X18.376 Y-37.855
G1 X18.463 Y-37.932
G1 X18.616 Y-38.065
G1 X18.673 Y-38.113
G1 X18.866 Y-38.274
G1 X18.883 Y-38.288
G1 X19.092 Y-38.456
G1 X19.128 Y-38.484
G1 X19.302 Y-38.619
G1 X19.401 Y-38.694
G1 X19.512 Y-38.776
G1 X19.688 Y-38.904
G1 X19.722 Y-38.928
G1 X19.931 Y-39.075
G1 X19.988 Y-39.113
G1 X20.141 Y-39.216
G1 X20.304 Y-39.323
G1 X20.351 Y-39.353
G1 X20.560 Y-39.486
G1 X20.637 Y-39.533
G1 X20.770 Y-39.614
G1 X20.980 Y-39.738
G1 X20.988 Y-39.743
G1 X21.190 Y-39.857
G1 X21.361 Y-39.952
G1 X21.399 Y-39.973
G1 X21.609 Y-40.085
G1 X21.756 Y-40.162
G1 X21.819 Y-40.194
G1 X22.029 Y-40.299
G1 X22.178 Y-40.372
G1 X22.238 Y-40.401
G1 X22.448 Y-40.499
G1 X22.629 Y-40.581
G1 X22.658 Y-40.594
G1 X22.867 Y-40.686
G1 X23.077 Y-40.775
G1 X23.116 Y-40.791
G1 X23.287 Y-40.861
G1 X23.497 Y-40.945
G1 X23.642 Y-41.001
G1 X23.706 Y-41.025
G1 X23.916 Y-41.103
G1 X24.126 Y-41.179
G1 X24.218 Y-41.211
G1 X24.336 Y-41.251
G1 X24.545 Y-41.322
G1 X24.755 Y-41.390
G1 X24.852 Y-41.420
G1 X24.965 Y-41.455
G1 X25.174 Y-41.519
G1 X31.256 Y-37.445
G1 X31.466 Y-37.459
G1 X31.676 Y-37.471
G1 X31.886 Y-37.480
G1 X32.095 Y-37.486
G1 X32.305 Y-37.489
G1 X32.515 Y-37.490
G1 X32.724 Y-37.487
G1 X32.934 Y-37.482
G1 X33.144 Y-37.474
G1 X33.354 Y-37.463
G1 X33.563 Y-37.450
G1 X33.741 Y-37.436
G1 X33.773 Y-37.433
G1 X33.983 Y-37.413
G1 X34.192 Y-37.390
G1 X34.402 Y-37.364
G1 X34.612 Y-37.335
G1 X34.822 Y-37.303
G1 X35.031 Y-37.268
G1 X35.241 Y-37.229
G1 X35.257 Y-37.226
G1 X35.451 Y-37.187
G1 X35.661 Y-37.141
G1 X35.870 Y-37.091
G1 X36.080 Y-37.038
G1 X36.163 Y-37.016
G1 X36.290 Y-36.982
G1 X36.499 Y-36.921
G1 X36.709 Y-36.856
G1 X36.861 Y-36.806
G1 X36.919 Y-36.787
G1 X37.129 Y-36.714
G1 X37.338 Y-36.636
G1 X37.441 Y-36.597
G1 X37.548 Y-36.554
G1 X37.758 Y-36.467
G1 X37.942 Y-36.387
G1 X37.968 Y-36.376
G1 X38.177 Y-36.279
G1 X38.386 Y-36.177
G1 X38.387 Y-36.177
G1 X38.597 Y-36.069
G1 X38.785 Y-35.968
G1 X38.806 Y-35.956
G1 X39.016 Y-35.836
G1 X39.148 Y-35.758
G1 X39.226 Y-35.711
G1 X39.436 Y-35.578
G1 X39.482 Y-35.548
G1 X39.645 Y-35.439
G1 X39.791 Y-35.338
G1 X39.855 Y-35.293
G1 X40.065 Y-35.139
G1 X40.079 Y-35.129
G1 X40.274 Y-34.977
G1 X40.347 Y-34.919
G1 X40.484 Y-34.807
G1 X40.600 Y-34.709
G1 X40.694 Y-34.628
G1 X40.838 Y-34.499
G1 X40.904 Y-34.439
G1 X41.062 Y-34.290
G1 X41.113 Y-34.241
G1 X41.275 Y-34.080
G1 X41.323 Y-34.032
G1 X41.478 Y-33.870
G1 X41.533 Y-33.812
G1 X41.670 Y-33.661
G1 X41.743 Y-33.579
G1 X41.854 Y-33.451
G1 X41.952 Y-33.334
G1 X42.029 Y-33.241
G1 X42.162 Y-33.076
G1 X42.197 Y-33.031
G1 X42.357 Y-32.822
G1 X42.372 Y-32.803
G1 X42.511 Y-32.612
G1 X42.581 Y-32.514
G1 X42.659 Y-32.402
G1 X42.791 Y-32.208
G1 X42.801 Y-32.192
G1 X42.938 Y-31.983
G1 X43.001 Y-31.883
G1 X43.069 Y-31.773
G1 X43.196 Y-31.563
G1 X43.211 Y-31.540
G1 X43.318 Y-31.354
G1 X43.420 Y-31.174
G1 X43.437 Y-31.144
G1 X43.551 Y-30.934
G1 X43.630 Y-30.785
G1 X43.661 Y-30.724
G1 X43.768 Y-30.515
G1 X43.840 Y-30.370
G1 X43.871 Y-30.305
G1 X43.971 Y-30.095
G1 X44.049 Y-29.927
G1 X44.068 Y-29.886
G1 X44.162 Y-29.676
G1 X44.254 Y-29.466
G1 X44.259 Y-29.453
G1 X44.342 Y-29.256
G1 X44.428 Y-29.047
G1 X44.469 Y-28.944
G1 X44.511 Y-28.837
G1 X44.592 Y-28.627
G1 X44.671 Y-28.417
G1 X44.679 Y-28.397
G1 X44.747 Y-28.208
G1 X44.822 Y-27.998
G1 X44.888 Y-27.807
G1 X44.895 Y-27.788
G1 X44.965 Y-27.579
G1 X45.034 Y-27.369
G1 X45.098 Y-27.168
G1 X45.101 Y-27.159
G1 X45.166 Y-26.949
G1 X45.229 Y-26.740
G1 X45.291 Y-26.530
G1 X45.308 Y-26.473
G1 X45.351 Y-26.320
G1 X45.410 Y-26.111
G1 X45.468 Y-25.901
G1 X45.518 Y-25.715
G1 X45.524 Y-25.691
G1 X45.578 Y-25.481
G1 X45.631 Y-25.272
G1 X45.684 Y-25.062
G1 X45.727 Y-24.883
G1 X45.735 Y-24.852
G1 X45.784 Y-24.642
G1 X45.832 Y-24.433
G1 X45.880 Y-24.223
G1 X45.926 Y-24.013
G1 X45.937 Y-23.964
G1 X45.971 Y-23.804
G1 X46.015 Y-23.594
G1 X46.058 Y-23.384
G1 X46.101 Y-23.174
G1 X46.142 Y-22.965
G1 X46.147 Y-22.941
G1 X46.182 Y-22.755
G1 X46.221 Y-22.545
G1 X46.260 Y-22.336
G1 X46.298 Y-22.126
G1 X46.335 Y-21.916
G1 X46.356 Y-21.792
G1 X46.371 Y-21.706
G1 X46.406 Y-21.497
G1 X46.440 Y-21.287
G1 X46.474 Y-21.077
G1 X46.507 Y-20.867
G1 X46.540 Y-20.658
G1 X46.566 Y-20.485
G1 X46.572 Y-20.448
G1 X46.602 Y-20.238
G1 X46.633 Y-20.029
G1 X46.662 Y-19.819
G1 X46.691 Y-19.609
G1 X46.720 Y-19.399
G1 X46.748 Y-19.190
G1 X46.775 Y-18.980
G1 X46.776 Y-18.973
G1 X46.801 Y-18.770
G1 X46.827 Y-18.560
G1 X46.853 Y-18.351
G1 X46.878 Y-18.141
G1 X46.902 Y-17.931
G1 X46.926 Y-17.722
G1 X46.950 Y-17.512
G1 X46.973 Y-17.302
G1 X46.986 Y-17.184
G1 X46.995 Y-17.092
G1 X47.017 Y-16.883
G1 X47.038 Y-16.673
G1 X47.059 Y-16.463
G1 X47.080 Y-16.254
G1 X47.100 Y-16.044
G1 X47.120 Y-15.834
G1 X47.139 Y-15.624
G1 X47.158 Y-15.415
G1 X47.177 Y-15.205
G1 X47.195 Y-14.995
G1 X47.195 Y-14.990
G1 X47.212 Y-14.785
G1 X47.230 Y-14.576
G1 X47.246 Y-14.366
G1 X47.263 Y-14.156
G1 X47.279 Y-13.947
G1 X47.295 Y-13.737
G1 X47.310 Y-13.527
G1 X47.325 Y-13.317
G1 X47.340 Y-13.108
G1 X47.354 Y-12.898
G1 X47.368 Y-12.688
G1 X47.382 Y-12.479
G1 X47.396 Y-12.269
G1 X47.405 Y-12.120
G1 X47.409 Y-12.059
G1 X47.421 Y-11.849
G1 X47.434 Y-11.640
G1 X47.446 Y-11.430
G1 X47.458 Y-11.220
G1 X47.469 Y-11.010
G1 X47.480 Y-10.801
G1 X47.491 Y-10.591
G1 X47.502 Y-10.381
G1 X47.512 Y-10.172
G1 X47.522 Y-9.962
G1 X47.532 Y-9.752
G1 X47.542 Y-9.542
G1 X47.551 Y-9.333
G1 X47.560 Y-9.123
G1 X47.569 Y-8.913
G1 X47.578 Y-8.704
G1 X47.586 Y-8.494
G1 X47.594 Y-8.284
G1 X47.602 Y-8.074
G1 X47.610 Y-7.865
G1 X47.615 Y-7.717
G1 X47.617 Y-7.655
G1 X47.624 Y-7.445
G1 X47.631 Y-7.235
G1 X47.637 Y-7.026
G1 X47.644 Y-6.816
G1 X47.650 Y-6.606
G1 X47.656 Y-6.397
G1 X47.661 Y-6.187
G1 X47.667 Y-5.977
G1 X47.672 Y-5.767
G1 X47.677 Y-5.558
G1 X47.682 Y-5.348
G1 X47.686 Y-5.138
G1 X47.691 Y-4.928
G1 X47.695 Y-4.719
G1 X47.699 Y-4.509
G1 X47.703 Y-4.299
G1 X47.707 Y-4.090
G1 X47.710 Y-3.880
G1 X47.713 Y-3.670
G1 X47.716 Y-3.460
G1 X47.719 Y-3.251
G1 X47.722 Y-3.041
G1 X47.724 Y-2.831
G1 X47.726 Y-2.622
G1 X47.728 Y-2.412
G1 X47.730 Y-2.202
G1 X47.732 Y-1.992
G1 X47.734 Y-1.783
G1 X47.735 Y-1.573
G1 X47.736 Y-1.363
G1 X47.737 Y-1.153
G1 X47.738 Y-0.944
G1 X47.739 Y-0.734
G1 X47.739 Y-0.524
G1 X47.739 Y-0.315
G1 X47.740 Y-0.105
G1 X47.739 Y0.105
G1 X47.739 Y0.315
G1 X47.739 Y0.524
G1 X47.738 Y0.734
G1 X47.738 Y0.944
G1 X47.737 Y1.153
G1 X47.736 Y1.363
G1 X47.734 Y1.573
G1 X47.733 Y1.783
G1 X47.731 Y1.992
G1 X47.730 Y2.202
G1 X47.728 Y2.412
G1 X47.726 Y2.622
G1 X47.723 Y2.831
G1 X47.721 Y3.041
G1 X47.718 Y3.251
G1 X47.715 Y3.460
G1 X47.712 Y3.670
G1 X47.709 Y3.880
G1 X47.705 Y4.090
G1 X47.702 Y4.299
G1 X47.698 Y4.509
G1 X47.694 Y4.719
G1 X47.689 Y4.928
G1 X47.685 Y5.138
G1 X47.680 Y5.348
G1 X47.675 Y5.558
G1 X47.670 Y5.767
G1 X47.665 Y5.977
G1 X47.659 Y6.187
G1 X47.654 Y6.397
G1 X47.648 Y6.606
G1 X47.641 Y6.816
G1 X47.635 Y7.026
G1 X47.628 Y7.235
G1 X47.622 Y7.445
G1 X47.615 Y7.648
G1 X47.615 Y7.655
G1 X47.607 Y7.865
G1 X47.599 Y8.074
G1 X47.592 Y8.284
G1 X47.583 Y8.494
G1 X47.575 Y8.704
G1 X47.566 Y8.913
G1 X47.557 Y9.123
G1 X47.548 Y9.333
G1 X47.539 Y9.542
G1 X47.529 Y9.752
G1 X47.519 Y9.962
G1 X47.509 Y10.172
G1 X47.499 Y10.381
G1 X47.488 Y10.591
G1 X47.477 Y10.801
G1 X47.466 Y11.010
G1 X47.454 Y11.220
G1 X47.442 Y11.430
G1 X47.430 Y11.640
G1 X47.418 Y11.849
G1 X47.405 Y12.057
G1 X47.405 Y12.059
G1 X47.392 Y12.269
G1 X47.378 Y12.479
G1 X47.364 Y12.688
G1 X47.350 Y12.898
G1 X47.336 Y13.108
G1 X47.321 Y13.317
G1 X47.306 Y13.527
G1 X47.290 Y13.737
G1 X47.274 Y13.947
G1 X47.258 Y14.156
G1 X47.242 Y14.366
G1 X47.225 Y14.576
G1 X47.207 Y14.785
G1 X47.195 Y14.930
G1 X47.190 Y14.995
G1 X47.171 Y15.205
G1 X47.153 Y15.415
G1 X47.134 Y15.624
G1 X47.114 Y15.834
G1 X47.095 Y16.044
G1 X47.074 Y16.254
G1 X47.054 Y16.463
G1 X47.033 Y16.673
G1 X47.011 Y16.883
G1 X46.989 Y17.092
G1 X46.986 Y17.127
G1 X46.967 Y17.302
G1 X46.943 Y17.512
G1 X46.920 Y17.722
G1 X46.896 Y17.931
G1 X46.871 Y18.141
G1 X46.846 Y18.351
G1 X46.821 Y18.560
G1 X46.795 Y18.770
G1 X46.776 Y18.918
G1 X46.768 Y18.980
G1 X46.740 Y19.190
G1 X46.712 Y19.399
G1 X46.684 Y19.609
G1 X46.655 Y19.819
G1 X46.625 Y20.029
G1 X46.595 Y20.238
G1 X46.566 Y20.432
G1 X46.564 Y20.448
G1 X46.532 Y20.658
G1 X46.499 Y20.867
G1 X46.466 Y21.077
G1 X46.432 Y21.287
G1 X46.398 Y21.497
G1 X46.362 Y21.706
G1 X46.356 Y21.741
G1 X46.326 Y21.916
G1 X46.289 Y22.126
G1 X46.251 Y22.336
G1 X46.212 Y22.545
G1 X46.173 Y22.755
G1 X46.147 Y22.892
G1 X46.133 Y22.965
G1 X46.091 Y23.174
G1 X46.048 Y23.384
G1 X46.005 Y23.594
G1 X45.961 Y23.804
G1 X45.937 Y23.916
G1 X45.916 Y24.013
G1 X45.869 Y24.223
G1 X45.822 Y24.433
G1 X45.773 Y24.642
G1 X45.727 Y24.837
G1 X45.724 Y24.852
G1 X45.672 Y25.062
G1 X45.620 Y25.272
G1 X45.566 Y25.481
G1 X45.518 Y25.670
G1 X45.512 Y25.691
G1 X45.455 Y25.901
G1 X45.398 Y26.111
G1 X45.339 Y26.320
G1 X45.308 Y26.429
G1 X45.278 Y26.530
G1 X45.216 Y26.740
G1 X45.152 Y26.949
G1 X45.098 Y27.125
G1 X45.087 Y27.159
G1 X45.020 Y27.369
G1 X44.951 Y27.579
G1 X44.888 Y27.765
G1 X44.880 Y27.788
G1 X44.807 Y27.998
G1 X44.732 Y28.208
G1 X44.679 Y28.355
G1 X44.656 Y28.417
G1 X44.576 Y28.627
G1 X44.495 Y28.837
G1 X44.469 Y28.903
G1 X44.411 Y29.047
G1 X44.325 Y29.256
G1 X44.259 Y29.413
G1 X44.236 Y29.466
G1 X44.144 Y29.676
G1 X44.050 Y29.886
G1 X44.049 Y29.887
G1 X43.952 Y30.095
G1 X43.852 Y30.305
G1 X43.840 Y30.331
G1 X43.748 Y30.515
G1 X43.641 Y30.724
G1 X43.630 Y30.746
G1 X43.530 Y30.934
G1 X43.420 Y31.136
G1 X43.416 Y31.144
G1 X43.296 Y31.354
G1 X43.211 Y31.502
G1 X43.174 Y31.563
G1 X43.046 Y31.773
G1 X43.001 Y31.846
G1 X42.913 Y31.983
G1 X42.791 Y32.171
G1 X42.776 Y32.192
G1 X42.633 Y32.402
G1 X42.581 Y32.477
G1 X42.484 Y32.612
G1 X42.372 Y32.766
G1 X42.330 Y32.822
G1 X42.169 Y33.031
G1 X42.162 Y33.040
G1 X41.999 Y33.241
G1 X41.952 Y33.298
G1 X41.823 Y33.451
G1 X41.743 Y33.544
G1 X41.638 Y33.661
G1 X41.533 Y33.776
G1 X41.444 Y33.870
G1 X41.323 Y33.997
G1 X41.240 Y34.080
G1 X41.113 Y34.206
G1 X41.026 Y34.290
G1 X40.904 Y34.404
G1 X40.799 Y34.499
G1 X40.694 Y34.593
G1 X40.559 Y34.709
G1 X40.484 Y34.772
G1 X40.304 Y34.919
G1 X40.274 Y34.943
G1 X40.065 Y35.105
G1 X40.033 Y35.129
G1 X39.855 Y35.259
G1 X39.742 Y35.338
G1 X39.645 Y35.405
G1 X39.436 Y35.544
G1 X39.430 Y35.548
G1 X39.226 Y35.677
G1 X39.091 Y35.758
G1 X39.016 Y35.802
G1 X38.806 Y35.922
G1 X38.722 Y35.968
G1 X38.597 Y36.035
G1 X38.387 Y36.143
G1 X38.317 Y36.177
G1 X38.177 Y36.245
G1 X37.968 Y36.342
G1 X37.865 Y36.387
G1 X37.758 Y36.434
G1 X37.548 Y36.520
G1 X37.354 Y36.597
G1 X37.338 Y36.603
G1 X37.129 Y36.680
G1 X36.919 Y36.753
G1 X36.758 Y36.806
G1 X36.709 Y36.822
G1 X36.499 Y36.887
G1 X36.290 Y36.947
G1 X36.080 Y37.004
G1 X36.034 Y37.016
G1 X35.870 Y37.057
G1 X35.661 Y37.106
G1 X35.451 Y37.152
G1 X35.241 Y37.194
G1 X35.072 Y37.226
G1 X35.031 Y37.233
G1 X34.822 Y37.269
G1 X34.612 Y37.301
G1 X34.402 Y37.329
G1 X34.192 Y37.355
G1 X33.983 Y37.378
G1 X33.773 Y37.397
G1 X33.563 Y37.414
G1 X33.354 Y37.428
G1 X33.200 Y37.436
G1 X33.144 Y37.438
G1 X32.934 Y37.446
G1 X32.724 Y37.451
G1 X32.515 Y37.453
G1 X32.305 Y37.452
G1 X32.095 Y37.449
G1 X31.886 Y37.443
G1 X31.719 Y37.436
G1 X31.676 Y37.434
G1 X31.466 Y37.422
G1 X31.256 Y37.407
G1 X31.047 Y37.390
G1 X30.837 Y37.370
G1 X30.627 Y37.347
G1 X30.417 Y37.322
G1 X30.208 Y37.294
G1 X29.998 Y37.263
G1 X29.788 Y37.229
G1 X29.768 Y37.226
G1 X29.579 Y37.193
G1 X29.369 Y37.154
G1 X29.159 Y37.112
G1 X28.949 Y37.067
G1 X28.740 Y37.019
G1 X28.727 Y37.016
G1 X28.530 Y36.968
G1 X28.320 Y36.915
G1 X28.111 Y36.858
G1 X27.927 Y36.806
G1 X27.901 Y36.799
G1 X27.691 Y36.736
G1 X27.481 Y36.670
G1 X27.272 Y36.602
G1 X27.257 Y36.597
G1 X27.062 Y36.529
G1 X26.852 Y36.454
G1 X26.672 Y36.387
G1 X26.642 Y36.376
G1 X26.433 Y36.293
G1 X26.223 Y36.208
G1 X26.150 Y36.177
G1 X26.013 Y36.119
G1 X25.804 Y36.026
G1 X25.675 Y35.968
G1 X25.594 Y35.930
G1 X25.384 Y35.830
G1 X25.238 Y35.758
G1 X25.174 Y35.726
G1 X24.965 Y35.618
G1 X24.834 Y35.548
G1 X24.755 Y35.506
G1 X24.545 Y35.389
G1 X24.457 Y35.338
G1 X24.336 Y35.268
G1 X24.126 Y35.143
G1 X24.102 Y35.129
G1 X23.916 Y35.013
G1 X23.769 Y34.919
G1 X23.706 Y34.878
G1 X23.497 Y34.739
G1 X23.453 Y34.709
G1 X23.287 Y34.594
G1 X23.154 Y34.499
G1 X23.077 Y34.444
G1 X22.869 Y34.290
G1 X22.867 Y34.289
G1 X22.658 Y34.127
G1 X22.598 Y34.080
G1 X22.448 Y33.960
G1 X22.338 Y33.870
G1 X22.238 Y33.787
G1 X22.090 Y33.661
G1 X22.029 Y33.608
G1 X21.851 Y33.451
G1 X21.819 Y33.421
G1 X21.623 Y33.241
G1 X21.609 Y33.228
G1 X21.403 Y33.031
G1 X21.399 Y33.028
G1 X21.191 Y32.822
G1 X21.190 Y32.820
G1 X20.987 Y32.612
G1 X20.980 Y32.605
G1 X20.790 Y32.402
G1 X20.770 Y32.381
G1 X20.600 Y32.192
G1 X20.560 Y32.148
G1 X20.416 Y31.983
G1 X20.351 Y31.906
G1 X20.239 Y31.773
G1 X20.141 Y31.655
G1 X20.067 Y31.563
G1 X19.931 Y31.394
G1 X19.900 Y31.354
G1 X19.738 Y31.144
G1 X19.722 Y31.122
G1 X19.582 Y30.934
G1 X19.512 Y30.839
G1 X19.429 Y30.724
G1 X19.302 Y30.544
G1 X19.282 Y30.515
G1 X19.138 Y30.305
G1 X19.092 Y30.237
G1 X18.999 Y30.095
G1 X18.883 Y29.917
G1 X18.863 Y29.886
G1 X18.731 Y29.676
G1 X18.673 Y29.582
G1 X18.603 Y29.466
G1 X18.477 Y29.256
G1 X18.463 Y29.232
G1 X18.356 Y29.047
G1 X18.254 Y28.867
G1 X18.237 Y28.837
G1 X18.121 Y28.627
G1 X18.044 Y28.484
G1 X18.008 Y28.417
G1 X17.899 Y28.208
G1 X17.834 Y28.083
G1 X17.791 Y27.998
G1 X17.686 Y27.788
G1 X17.624 Y27.662
G1 X17.584 Y27.579
G1 X17.484 Y27.369
G1 X17.415 Y27.220
G1 X17.387 Y27.159
G1 X17.292 Y26.949
G1 X17.205 Y26.755
G1 X17.198 Y26.740
G1 X17.108 Y26.530
G1 X17.019 Y26.320
G1 X16.995 Y26.264
G1 X16.932 Y26.111
G1 X16.847 Y25.901
G1 X16.785 Y25.747
G1 X16.764 Y25.691
G1 X16.683 Y25.481
G1 X16.603 Y25.272
G1 X16.576 Y25.199
G1 X16.525 Y25.062
G1 X16.449 Y24.852
G1 X16.374 Y24.642
G1 X16.366 Y24.619
G1 X16.301 Y24.433
G1 X16.230 Y24.223
G1 X16.160 Y24.013
G1 X16.156 Y24.003
G1 X16.092 Y23.804
G1 X16.024 Y23.594
G1 X15.959 Y23.384
G1 X15.947 Y23.345
G1 X15.894 Y23.174
G1 X15.831 Y22.965
G1 X15.769 Y22.755
G1 X15.737 Y22.643
G1 X15.709 Y22.545
G1 X15.650 Y22.336
G1 X15.591 Y22.126
G1 X15.534 Y21.916
G1 X15.527 Y21.889
G1 X15.479 Y21.706
G1 X15.424 Y21.497
G1 X15.370 Y21.287
G1 X15.317 Y21.077
G1 X15.317 Y21.077
G1 X15.266 Y20.867
G1 X15.215 Y20.658
G1 X15.166 Y20.448
G1 X15.117 Y20.238
G1 X15.108 Y20.197
G1 X15.069 Y20.029
G1 X15.023 Y19.819
G1 X14.977 Y19.609
G1 X14.932 Y19.399
G1 X14.898 Y19.238
G1 X14.888 Y19.190
G1 X14.845 Y18.980
G1 X14.802 Y18.770
G1 X14.761 Y18.560
G1 X14.720 Y18.351
G1 X14.688 Y18.185
G1 X14.680 Y18.141
G1 X14.641 Y17.931
G1 X14.603 Y17.722
G1 X14.565 Y17.512
G1 X14.528 Y17.302
G1 X14.492 Y17.092
G1 X14.479 Y17.016
G1 X14.456 Y16.883
G1 X14.421 Y16.673
G1 X14.387 Y16.463
G1 X14.354 Y16.254
G1 X14.321 Y16.044
G1 X14.289 Y15.834
G1 X14.269 Y15.701
G1 X14.257 Y15.624
G1 X14.227 Y15.415
G1 X14.196 Y15.205
G1 X14.167 Y14.995
G1 X14.138 Y14.785
G1 X14.109 Y14.576
G1 X14.081 Y14.366
G1 X14.059 Y14.195
G1 X14.054 Y14.156
G1 X14.027 Y13.947
G1 X14.001 Y13.737
G1 X13.976 Y13.527
G1 X13.951 Y13.317
G1 X13.926 Y13.108
G1 X13.902 Y12.898
G1 X13.879 Y12.688
G1 X13.856 Y12.479
G1 X13.849 Y12.420
G1 X13.833 Y12.269
G1 X13.811 Y12.059
G1 X13.790 Y11.849
G1 X13.769 Y11.640
G1 X13.748 Y11.430
G1 X13.728 Y11.220
G1 X13.709 Y11.010
G1 X13.690 Y10.801
G1 X13.671 Y10.591
G1 X13.653 Y10.381
G1 X13.640 Y10.225
G1 X13.635 Y10.172
G1 X13.618 Y9.962
G1 X13.601 Y9.752
G1 X13.585 Y9.542
G1 X13.569 Y9.333
G1 X13.553 Y9.123
G1 X13.538 Y8.913
G1 X13.523 Y8.704
G1 X13.509 Y8.494
G1 X13.495 Y8.284
G1 X13.481 Y8.074
G1 X13.468 Y7.865
G1 X13.455 Y7.655
G1 X13.443 Y7.445
G1 X13.431 Y7.235
G1 X13.430 Y7.217
G1 X13.419 Y7.026
G1 X13.408 Y6.816
G1 X13.397 Y6.606
G1 X13.387 Y6.397
G1 X13.377 Y6.187
G1 X13.367 Y5.977
G1 X13.358 Y5.767
G1 X13.349 Y5.558
G1 X13.340 Y5.348
G1 X13.332 Y5.138
G1 X13.324 Y4.928
G1 X13.316 Y4.719
G1 X13.309 Y4.509
G1 X13.302 Y4.299
G1 X13.296 Y4.090
G1 X13.289 Y3.880
G1 X13.283 Y3.670
G1 X13.278 Y3.460
G1 X13.273 Y3.251
G1 X13.268 Y3.041
G1 X13.263 Y2.831
G1 X13.259 Y2.622
G1 X13.255 Y2.412
G1 X13.252 Y2.202
G1 X13.248 Y1.992
G1 X13.245 Y1.783
G1 X13.243 Y1.573
G1 X13.240 Y1.363
G1 X13.238 Y1.153
G1 X13.237 Y0.944
G1 X13.235 Y0.734
G1 X13.234 Y0.524
G1 X13.234 Y0.315
G1 X13.233 Y0.105
G1 X13.233 Y-0.105
G1 X13.233 Y-0.315
G1 X13.234 Y-0.524
G1 X13.234 Y-0.734
G1 X13.236 Y-0.944
G1 X13.237 Y-1.153
G1 X13.239 Y-1.363
G1 X13.241 Y-1.573
G1 X13.243 Y-1.783
G1 X13.246 Y-1.992
G1 X13.249 Y-2.202
G1 X13.252 Y-2.412
G1 X13.256 Y-2.622
G1 X13.260 Y-2.831
G1 X13.264 Y-3.041
G1 X13.269 Y-3.251
G1 X13.274 Y-3.460
G1 X13.279 Y-3.670
G1 X13.285 Y-3.880
G1 X13.291 Y-4.090
G1 X13.297 Y-4.299
G1 X13.304 Y-4.509
G1 X13.311 Y-4.719
G1 X13.318 Y-4.928
G1 X13.326 Y-5.138
G1 X13.334 Y-5.348
G1 X13.342 Y-5.558
G1 X13.351 Y-5.767
G1 X13.360 Y-5.977
G1 X13.370 Y-6.187
G1 X13.379 Y-6.397
G1 X13.390 Y-6.606
G1 X13.400 Y-6.816
G1 X13.411 Y-7.026
G1 X13.422 Y-7.235
G1 X13.430 Y-7.369
G1 X13.434 Y-7.445
G1 X13.446 Y-7.655
G1 X13.459 Y-7.865
G1 X13.472 Y-8.074
G1 X13.485 Y-8.284
G1 X13.499 Y-8.494
G1 X13.513 Y-8.704
G1 X13.527 Y-8.913
G1 X13.542 Y-9.123
G1 X13.558 Y-9.333
G1 X13.573 Y-9.542
G1 X13.590 Y-9.752
G1 X13.606 Y-9.962
G1 X13.623 Y-10.172
G1 X13.640 Y-10.371
G1 X13.641 Y-10.381
G1 X13.658 Y-10.591
G1 X13.677 Y-10.801
G1 X13.696 Y-11.010
G1 X13.715 Y-11.220
G1 X13.735 Y-11.430
G1 X13.755 Y-11.640
G1 X13.776 Y-11.849
G1 X13.797 Y-12.059
G1 X13.819 Y-12.269
G1 X13.841 Y-12.479
G1 X13.849 Y-12.559
G1 X13.863 Y-12.688
G1 X13.887 Y-12.898
G1 X13.910 Y-13.108
G1 X13.935 Y-13.317
G1 X13.959 Y-13.527
G1 X13.985 Y-13.737
G1 X14.011 Y-13.947
G1 X14.037 Y-14.156
G1 X14.059 Y-14.329
G1 X14.064 Y-14.366
G1 X14.092 Y-14.576
G1 X14.120 Y-14.785
G1 X14.148 Y-14.995
G1 X14.178 Y-15.205
G1 X14.208 Y-15.415
G1 X14.238 Y-15.624
G1 X14.269 Y-15.831
G1 X14.269 Y-15.834
G1 X14.301 Y-16.044
G1 X14.334 Y-16.254
G1 X14.367 Y-16.463
G1 X14.401 Y-16.673
G1 X14.435 Y-16.883
G1 X14.470 Y-17.092
G1 X14.479 Y-17.141
G1 X14.506 Y-17.302
G1 X14.543 Y-17.512
G1 X14.580 Y-17.722
G1 X14.618 Y-17.931
G1 X14.657 Y-18.141
G1 X14.688 Y-18.306
G1 X14.697 Y-18.351
G1 X14.737 Y-18.560
G1 X14.778 Y-18.770
G1 X14.821 Y-18.980
G1 X14.863 Y-19.190
G1 X14.898 Y-19.356
G1 X14.907 Y-19.399
G1 X14.952 Y-19.609
G1 X14.997 Y-19.819
G1 X15.044 Y-20.029
G1 X15.091 Y-20.238
G1 X15.108 Y-20.312
G1 X15.139 Y-20.448
G1 X15.188 Y-20.658
G1 X15.239 Y-20.867
G1 X15.290 Y-21.077
G1 X15.317 Y-21.189
G1 X15.342 Y-21.287
G1 X15.395 Y-21.497
G1 X15.450 Y-21.706
G1 X15.505 Y-21.916
G1 X15.527 Y-21.998
G1 X15.562 Y-22.126
G1 X15.620 Y-22.336
G1 X15.679 Y-22.545
G1 X15.737 Y-22.749
G1 X15.739 Y-22.755
G1 X15.800 Y-22.965
G1 X15.863 Y-23.174
G1 X15.927 Y-23.384
G1 X15.947 Y-23.448
G1 X15.992 Y-23.594
G1 X16.059 Y-23.804
G1 X16.127 Y-24.013
G1 X16.156 Y-24.103
G1 X16.196 Y-24.223
G1 X16.267 Y-24.433
G1 X16.340 Y-24.642
G1 X16.366 Y-24.717
G1 X16.414 Y-24.852
G1 X16.490 Y-25.062
G1 X16.567 Y-25.272
G1 X16.576 Y-25.295
G1 X16.646 Y-25.481
G1 X16.727 Y-25.691
G1 X16.785 Y-25.840
G1 X16.809 Y-25.901
G1 X16.894 Y-26.111
G1 X16.980 Y-26.320
G1 X16.995 Y-26.356
G1 X17.069 Y-26.530
G1 X17.159 Y-26.740
G1 X17.205 Y-26.844
G1 X17.252 Y-26.949
G1 X17.346 Y-27.159
G1 X17.415 Y-27.307
G1 X17.443 Y-27.369
G1 X17.543 Y-27.579
G1 X17.624 Y-27.748
G1 X17.644 Y-27.788
G1 X17.748 Y-27.998
G1 X17.834 Y-28.167
G1 X17.855 Y-28.208
G1 X17.965 Y-28.417
G1 X18.044 Y-28.566
G1 X18.077 Y-28.627
G1 X18.192 Y-28.837
G1 X18.254 Y-28.948
G1 X18.310 Y-29.047
G1 X18.431 Y-29.256
G1 X18.463 Y-29.312
G1 X18.555 Y-29.466
G1 X18.673 Y-29.660
G1 X18.683 Y-29.676
G1 X18.814 Y-29.886
G1 X18.883 Y-29.993
G1 X18.949 Y-30.095
G1 X19.088 Y-30.305
G1 X19.092 Y-30.312
G1 X19.231 Y-30.515
G1 X19.302 Y-30.618
G1 X19.377 Y-30.724
G1 X19.512 Y-30.912
G1 X19.528 Y-30.934
G1 X19.684 Y-31.144
G1 X19.722 Y-31.193
G1 X19.845 Y-31.354
G1 X19.931 Y-31.464
G1 X20.011 Y-31.563
G1 X20.141 Y-31.724
G1 X20.182 Y-31.773
G1 X20.351 Y-31.974
G1 X20.358 Y-31.983
G1 X20.541 Y-32.192
G1 X20.560 Y-32.215
G1 X20.730 Y-32.402
G1 X20.770 Y-32.446
G1 X20.926 Y-32.612
G1 X20.980 Y-32.669
G1 X21.128 Y-32.822
G1 X21.190 Y-32.884
G1 X21.339 Y-33.031
G1 X21.399 Y-33.091
G1 X21.557 Y-33.241
G1 X21.609 Y-33.290
G1 X21.784 Y-33.451
G1 X21.819 Y-33.482
G1 X22.021 Y-33.661
G1 X22.029 Y-33.668
G1 X22.238 Y-33.846
G1 X22.267 Y-33.870
G1 X22.448 Y-34.018
G1 X22.525 Y-34.080
G1 X22.658 Y-34.185
G1 X22.794 Y-34.290
G1 X22.867 Y-34.345
G1 X23.076 Y-34.499
G1 X23.077 Y-34.500
G1 X23.287 Y-34.649
G1 X23.374 Y-34.709
G1 X23.497 Y-34.793
G1 X23.686 Y-34.919
G1 X23.706 Y-34.932
G1 X23.916 Y-35.066
G1 X24.017 Y-35.129
G1 X24.126 Y-35.195
G1 X24.336 Y-35.320
G1 X24.367 Y-35.338
G1 X24.545 Y-35.440
G1 X24.741 Y-35.548
G1 X24.755 Y-35.556
G1 X24.965 Y-35.667
G1 X25.140 Y-35.758
G1 X25.174 Y-35.775
G1 X25.384 Y-35.878
G1 X25.571 Y-35.968
G1 X25.594 Y-35.978
G1 X25.804 Y-36.074
G1 X26.013 Y-36.166
G1 X26.039 Y-36.177
G1 X26.223 Y-36.255
G1 X30.837 Y-31.169
G1 X31.047 Y-31.199
G1 X31.256 Y-31.225
G1 X31.466 Y-31.247
G1 X31.676 Y-31.265
G1 X31.886 Y-31.278
G1 X32.095 Y-31.286
G1 X32.305 Y-31.290
G1 X32.515 Y-31.289
G1 X32.724 Y-31.284
G1 X32.934 Y-31.274
G1 X33.144 Y-31.260
G1 X33.354 Y-31.240
G1 X33.563 Y-31.216
G1 X33.773 Y-31.187
G1 X33.983 Y-31.153
G1 X34.035 Y-31.144
G1 X34.192 Y-31.114
G1 X34.402 Y-31.070
G1 X34.612 Y-31.021
G1 X34.822 Y-30.966
G1 X34.934 Y-30.934
G1 X35.031 Y-30.906
G1 X35.241 Y-30.840
G1 X35.451 Y-30.769
G1 X35.571 Y-30.724
G1 X35.661 Y-30.691
G1 X35.870 Y-30.607
G1 X36.080 Y-30.517
G1 X36.086 Y-30.515
G1 X36.290 Y-30.420
G1 X36.499 Y-30.317
G1 X36.523 Y-30.305
G1 X36.709 Y-30.207
G1 X36.909 Y-30.095
G1 X36.919 Y-30.089
G1 X37.129 Y-29.964
G1 X37.253 Y-29.886
G1 X37.338 Y-29.831
G1 X37.548 Y-29.690
G1 X37.568 Y-29.676
G1 X37.758 Y-29.540
G1 X37.856 Y-29.466
G1 X37.968 Y-29.381
G1 X38.124 Y-29.256
G1 X38.177 Y-29.213
G1 X38.374 Y-29.047
G1 X38.387 Y-29.035
G1 X38.597 Y-28.847
G1 X38.607 Y-28.837
G1 X38.806 Y-28.648
G1 X38.827 Y-28.627
G1 X39.016 Y-28.437
G1 X39.035 Y-28.417
G1 X39.226 Y-28.214
G1 X39.231 Y-28.208
G1 X39.418 Y-27.998
G1 X39.436 Y-27.978
G1 X39.595 Y-27.788
G1 X39.645 Y-27.728
G1 X39.765 Y-27.579
G1 X39.855 Y-27.464
G1 X39.927 Y-27.369
G1 X40.065 Y-27.184
G1 X40.082 Y-27.159
G1 X40.231 Y-26.949
G1 X40.274 Y-26.887
G1 X40.373 Y-26.740
G1 X40.484 Y-26.572
G1 X40.511 Y-26.530
G1 X40.643 Y-26.320
G1 X40.694 Y-26.237
G1 X40.770 Y-26.111
G1 X40.893 Y-25.901
G1 X40.904 Y-25.882
G1 X41.011 Y-25.691
G1 X41.113 Y-25.504
G1 X41.125 Y-25.481
G1 X41.235 Y-25.272
G1 X41.323 Y-25.101
G1 X41.343 Y-25.062
G1 X41.446 Y-24.852
G1 X41.533 Y-24.671
G1 X41.546 Y-24.642
G1 X41.643 Y-24.433
G1 X41.737 Y-24.223
G1 X41.743 Y-24.212
G1 X41.828 Y-24.013
G1 X41.917 Y-23.804
G1 X41.952 Y-23.719
G1 X42.003 Y-23.594
G1 X42.086 Y-23.384
G1 X42.162 Y-23.189
G1 X42.168 Y-23.174
G1 X42.246 Y-22.965
G1 X42.323 Y-22.755
G1 X42.372 Y-22.619
G1 X42.397 Y-22.545
G1 X42.470 Y-22.336
G1 X42.541 Y-22.126
G1 X42.581 Y-22.003
G1 X42.609 Y-21.916
G1 X42.676 Y-21.706
G1 X42.741 Y-21.497
G1 X42.791 Y-21.334
G1 X42.805 Y-21.287
G1 X42.867 Y-21.077
G1 X42.927 Y-20.867
G1 X42.986 Y-20.658
G1 X43.001 Y-20.605
G1 X43.043 Y-20.448
G1 X43.099 Y-20.238
G1 X43.154 Y-20.029
G1 X43.207 Y-19.819
G1 X43.211 Y-19.805
G1 X43.259 Y-19.609
G1 X43.309 Y-19.399
G1 X43.359 Y-19.190
G1 X43.407 Y-18.980
G1 X43.420 Y-18.923
G1 X43.454 Y-18.770
G1 X43.500 Y-18.560
G1 X43.545 Y-18.351
G1 X43.589 Y-18.141
G1 X43.630 Y-17.941
G1 X43.632 Y-17.931
G1 X43.673 Y-17.722
G1 X43.714 Y-17.512
G1 X43.754 Y-17.302
G1 X43.793 Y-17.092
G1 X43.831 Y-16.883
G1 X43.840 Y-16.835
G1 X43.868 Y-16.673
G1 X43.904 Y-16.463
G1 X43.939 Y-16.254
G1 X43.974 Y-16.044
G1 X44.008 Y-15.834
G1 X44.041 Y-15.624
G1 X44.049 Y-15.571
G1 X44.073 Y-15.415
G1 X44.105 Y-15.205
G1 X44.135 Y-14.995
G1 X44.165 Y-14.785
G1 X44.195 Y-14.576
G1 X44.223 Y-14.366
G1 X44.251 Y-14.156
G1 X44.259 Y-14.097
G1 X44.279 Y-13.947
G1 X44.305 Y-13.737
G1 X44.331 Y-13.527
G1 X44.356 Y-13.317
G1 X44.381 Y-13.108
G1 X44.405 Y-12.898
G1 X44.429 Y-12.688
G1 X44.452 Y-12.479
G1 X44.469 Y-12.321
G1 X44.474 Y-12.269
G1 X44.496 Y-12.059
G1 X44.517 Y-11.849
G1 X44.538 Y-11.640
G1 X44.558 Y-11.430
G1 X44.578 Y-11.220
G1 X44.597 Y-11.010
G1 X44.616 Y-10.801
G1 X44.634 Y-10.591
G1 X44.652 Y-10.381
G1 X44.669 Y-10.172
G1 X44.679 Y-10.056
G1 X44.686 Y-9.962
G1 X44.702 Y-9.752
G1 X44.718 Y-9.542
G1 X44.733 Y-9.333
G1 X44.748 Y-9.123
G1 X44.763 Y-8.913
G1 X44.777 Y-8.704
G1 X44.790 Y-8.494
G1 X44.804 Y-8.284
G1 X44.817 Y-8.074
G1 X44.829 Y-7.865
G1 X44.841 Y-7.655
G1 X44.853 Y-7.445
G1 X44.864 Y-7.235
G1 X44.875 Y-7.026
G1 X44.886 Y-6.816
G1 X44.888 Y-6.759
G1 X44.896 Y-6.606
G1 X44.905 Y-6.397
G1 X44.915 Y-6.187
G1 X44.923 Y-5.977
G1 X44.932 Y-5.767
G1 X44.940 Y-5.558
G1 X44.948 Y-5.348
G1 X44.956 Y-5.138
G1 X44.963 Y-4.928
G1 X44.970 Y-4.719
G1 X44.976 Y-4.509
G1 X44.983 Y-4.299
G1 X44.989 Y-4.090
G1 X44.994 Y-3.880
G1 X44.999 Y-3.670
G1 X45.004 Y-3.460
G1 X45.009 Y-3.251
G1 X45.013 Y-3.041
G1 X45.017 Y-2.831
G1 X45.021 Y-2.622
G1 X45.024 Y-2.412
G1 X45.028 Y-2.202
G1 X45.030 Y-1.992
G1 X45.033 Y-1.783
G1 X45.035 Y-1.573
G1 X45.037 Y-1.363
G1 X45.039 Y-1.153
G1 X45.040 Y-0.944
G1 X45.041 Y-0.734
G1 X45.042 Y-0.524
G1 X45.042 Y-0.315
G1 X45.043 Y-0.105
G1 X45.043 Y0.105
G1 X45.042 Y0.315
G1 X45.042 Y0.524
G1 X45.041 Y0.734
G1 X45.040 Y0.944
G1 X45.038 Y1.153
G1 X45.036 Y1.363
G1 X45.034 Y1.573
G1 X45.032 Y1.783
G1 X45.029 Y1.992
G1 X45.026 Y2.202
G1 X45.023 Y2.412
G1 X45.020 Y2.622
G1 X45.016 Y2.831
G1 X45.012 Y3.041
G1 X45.007 Y3.251
G1 X45.002 Y3.460
G1 X44.997 Y3.670
G1 X44.992 Y3.880
G1 X44.986 Y4.090
G1 X44.980 Y4.299
G1 X44.974 Y4.509
G1 X44.967 Y4.719
G1 X44.960 Y4.928
G1 X44.953 Y5.138
G1 X44.945 Y5.348
G1 X44.937 Y5.558
G1 X44.929 Y5.767
G1 X44.920 Y5.977
G1 X44.911 Y6.187
G1 X44.902 Y6.397
G1 X44.892 Y6.606
G1 X44.888 Y6.682
G1 X44.882 Y6.816
G1 X44.871 Y7.026
G1 X44.860 Y7.235
G1 X44.849 Y7.445
G1 X44.837 Y7.655
G1 X44.825 Y7.865
G1 X44.812 Y8.074
G1 X44.799 Y8.284
G1 X44.786 Y8.494
G1 X44.772 Y8.704
G1 X44.758 Y8.913
G1 X44.743 Y9.123
G1 X44.728 Y9.333
G1 X44.713 Y9.542
G1 X44.697 Y9.752
G1 X44.680 Y9.962
G1 X44.679 Y9.985
G1 X44.663 Y10.172
G1 X44.646 Y10.381
G1 X44.628 Y10.591
G1 X44.610 Y10.801
G1 X44.591 Y11.010
G1 X44.571 Y11.220
G1 X44.551 Y11.430
G1 X44.531 Y11.640
G1 X44.510 Y11.849
G1 X44.489 Y12.059
G1 X44.469 Y12.253
G1 X44.467 Y12.269
G1 X44.444 Y12.479
G1 X44.421 Y12.688
G1 X44.397 Y12.898
G1 X44.373 Y13.108
G1 X44.348 Y13.317
G1 X44.323 Y13.527
G1 X44.297 Y13.737
G1 X44.270 Y13.947
G1 X44.259 Y14.031
G1 X44.243 Y14.156
G1 X44.214 Y14.366
G1 X44.185 Y14.576
G1 X44.156 Y14.785
G1 X44.126 Y14.995
G1 X44.095 Y15.205
G1 X44.064 Y15.415
G1 X44.049 Y15.507
G1 X44.031 Y15.624
G1 X43.998 Y15.834
G1 X43.964 Y16.044
G1 X43.929 Y16.254
G1 X43.893 Y16.463
G1 X43.857 Y16.673
G1 X43.840 Y16.772
G1 X43.820 Y16.883
G1 X43.781 Y17.092
G1 X43.742 Y17.302
G1 X43.702 Y17.512
G1 X43.661 Y17.722
G1 X43.630 Y17.880
G1 X43.620 Y17.931
G1 X43.576 Y18.141
G1 X43.532 Y18.351
G1 X43.487 Y18.560
G1 X43.441 Y18.770
G1 X43.420 Y18.863
G1 X43.394 Y18.980
G1 X43.345 Y19.190
G1 X43.295 Y19.399
G1 X43.244 Y19.609
